OpenColorIO/ty_ocio/config.ocio
ocio_profile_version: 1

search_path: luts
strictparsing: true
luma: [0.2126, 0.7152, 0.0722]

description: Test config file for study of the ocio.

roles:
  