OpenColorIO/ty_ocio/ty_config.ocio
ocio_profile_version: 1

search_path: luts
strictparsing: true
luma: [0.2126, 0.7152, 0.0722]

roles:
  color_picking: raw
  color_timing: raw
  compositing_log: raw
  data: raw
  default: gamut_ACES2065-1 - eotf_Linear
  matte_paint: raw
  reference: raw
  texture_paint: raw

displays:
  default:
    - !<View> {name: gamut_BT.709 - eotf_Gamma 2.4, colorspace: gamut_BT.709 - eotf_Gamma 2.4}

active_displays: [default]
active_views: [gamut_BT.709 - eotf_Gamma 2.4]

colorspaces:
  - !<ColorSpace>
    name: gamut_ACES2065-1 - eotf_Linear
    family: ""
    equalitygroup: ""
    bitdepth: 32f
    description: |
      reference
    isdata: false
    allocation: lg2
    allocationvars: [-8, 5, 0.00390625]

  - !<ColorSpace>
    name: raw
    family: ""
    equalitygroup: ""
    bitdepth: 32f
    description: |
      raw
    isdata: false
    allocation: uniform
    allocationvars: [0, 1]

  - !<ColorSpace>
    name: gamut_BT.709 - eotf_Gamma 2.4
    family: ""
    equalitygroup: ""
    bitdepth: 32f
    description: |
      bt1886
    isdata: false
    allocation: uniform
    allocationvars: [0, 1]
    to_reference: !<GroupTransform>
      children:
        - !<FileTransform> {src: Gamma_2.4_to_Linear.spi1d, interpolation: linear}
        - !<MatrixTransform> {matrix: [0.439576, 0.383913, 0.176512, 0, 0.0896004, 0.814714, 0.0956855, 0, 0.0174155, 0.108734, 0.87385, 0, 0, 0, 0, 1]}
    from_reference: !<GroupTransform>
      children:
        - !<MatrixTransform> {matrix: [2.52193, -1.13702, -0.384911, 0, -0.275479, 1.36983, -0.0943495, 0, -0.0159829, -0.147789, 1.16377, 0, 0, 0, 0, 1]}
        - !<FileTransform> {src: Gamma_2.4_to_Linear.spi1d, interpolation: linear, direction: inverse}

  - !<ColorSpace>
    name: gamut_DCI-P3 - eotf_SMPTE ST2084
    family: ""
    equalitygroup: ""
    bitdepth: 32f
    description: |
      DCI-P3_ST2084
    isdata: false
    allocation: uniform
    allocationvars: [0, 1]
    to_reference: !<GroupTransform>
      children:
        - !<FileTransform> {src: SMPTE_ST2084_to_Linear.spi1d, interpolation: linear}
        - !<MatrixTransform> {matrix: [0.518841, 0.2873, 0.193858, 0, 0.0736117, 0.821299, 0.105089, 0, -0.000400392, 0.0406738, 0.959727, 0, 0, 0, 0, 1]}
    from_reference: !<GroupTransform>
      children:
        - !<MatrixTransform> {matrix: [2.02529, -0.691962, -0.333325, 0, -0.182622, 1.28662, -0.103994, 0, 0.00858455, -0.0548163, 1.04623, 0, 0, 0, 0, 1]}
        - !<FileTransform> {src: SMPTE_ST2084_to_Linear.spi1d, interpolation: linear, direction: inverse}
