matplotlib/gamma_curve/data/cl1.cube
# Gamma : Canon Log to Linear
# Range : Full in / Linear out
# Version : 2.0 2016/10/27
# Copyright(c) 2016 Canon Inc. All Rights Reserved.

LUT_1D_SIZE 1024
-0.087467 -0.087467 -0.087467
-0.086546 -0.086546 -0.086546
-0.085629 -0.085629 -0.085629
-0.084717 -0.084717 -0.084717
-0.083810 -0.083810 -0.083810
-0.082906 -0.082906 -0.082906
-0.082008 -0.082008 -0.082008
-0.081114 -0.081114 -0.081114
-0.080224 -0.080224 -0.080224
-0.079339 -0.079339 -0.079339
-0.078458 -0.078458 -0.078458
-0.077581 -0.077581 -0.077581
-0.076709 -0.076709 -0.076709
-0.075841 -0.075841 -0.075841
-0.074978 -0.074978 -0.074978
-0.074119 -0.074119 -0.074119
-0.073264 -0.073264 -0.073264
-0.072413 -0.072413 -0.072413
-0.071566 -0.071566 -0.071566
-0.070724 -0.070724 -0.070724
-0.069886 -0.069886 -0.069886
-0.069052 -0.069052 -0.069052
-0.068222 -0.068222 -0.068222
-0.067396 -0.067396 -0.067396
-0.066574 -0.066574 -0.066574
-0.065757 -0.065757 -0.065757
-0.064943 -0.064943 -0.064943
-0.064133 -0.064133 -0.064133
-0.063328 -0.063328 -0.063328
-0.062526 -0.062526 -0.062526
-0.061729 -0.061729 -0.061729
-0.060935 -0.060935 -0.060935
-0.060145 -0.060145 -0.060145
-0.059360 -0.059360 -0.059360
-0.058578 -0.058578 -0.058578
-0.057800 -0.057800 -0.057800
-0.057026 -0.057026 -0.057026
-0.056255 -0.056255 -0.056255
-0.055489 -0.055489 -0.055489
-0.054726 -0.054726 -0.054726
-0.053967 -0.053967 -0.053967
-0.053212 -0.053212 -0.053212
-0.052461 -0.052461 -0.052461
-0.051713 -0.051713 -0.051713
-0.050969 -0.050969 -0.050969
-0.050229 -0.050229 -0.050229
-0.049492 -0.049492 -0.049492
-0.048759 -0.048759 -0.048759
-0.048030 -0.048030 -0.048030
-0.047304 -0.047304 -0.047304
-0.046582 -0.046582 -0.046582
-0.045863 -0.045863 -0.045863
-0.045148 -0.045148 -0.045148
-0.044437 -0.044437 -0.044437
-0.043729 -0.043729 -0.043729
-0.043024 -0.043024 -0.043024
-0.042323 -0.042323 -0.042323
-0.041626 -0.041626 -0.041626
-0.040932 -0.040932 -0.040932
-0.040241 -0.040241 -0.040241
-0.039554 -0.039554 -0.039554
-0.038870 -0.038870 -0.038870
-0.038190 -0.038190 -0.038190
-0.037513 -0.037513 -0.037513
-0.036840 -0.036840 -0.036840
-0.036169 -0.036169 -0.036169
-0.035502 -0.035502 -0.035502
-0.034839 -0.034839 -0.034839
-0.034178 -0.034178 -0.034178
-0.033521 -0.033521 -0.033521
-0.032867 -0.032867 -0.032867
-0.032217 -0.032217 -0.032217
-0.031569 -0.031569 -0.031569
-0.030925 -0.030925 -0.030925
-0.030284 -0.030284 -0.030284
-0.029646 -0.029646 -0.029646
-0.029012 -0.029012 -0.029012
-0.028380 -0.028380 -0.028380
-0.027752 -0.027752 -0.027752
-0.027127 -0.027127 -0.027127
-0.026504 -0.026504 -0.026504
-0.025885 -0.025885 -0.025885
-0.025269 -0.025269 -0.025269
-0.024656 -0.024656 -0.024656
-0.024046 -0.024046 -0.024046
-0.023440 -0.023440 -0.023440
-0.022836 -0.022836 -0.022836
-0.022235 -0.022235 -0.022235
-0.021637 -0.021637 -0.021637
-0.021042 -0.021042 -0.021042
-0.020450 -0.020450 -0.020450
-0.019861 -0.019861 -0.019861
-0.019275 -0.019275 -0.019275
-0.018691 -0.018691 -0.018691
-0.018111 -0.018111 -0.018111
-0.017534 -0.017534 -0.017534
-0.016959 -0.016959 -0.016959
-0.016387 -0.016387 -0.016387
-0.015818 -0.015818 -0.015818
-0.015252 -0.015252 -0.015252
-0.014689 -0.014689 -0.014689
-0.014128 -0.014128 -0.014128
-0.013570 -0.013570 -0.013570
-0.013015 -0.013015 -0.013015
-0.012463 -0.012463 -0.012463
-0.011914 -0.011914 -0.011914
-0.011367 -0.011367 -0.011367
-0.010823 -0.010823 -0.010823
-0.010282 -0.010282 -0.010282
-0.009743 -0.009743 -0.009743
-0.009207 -0.009207 -0.009207
-0.008673 -0.008673 -0.008673
-0.008143 -0.008143 -0.008143
-0.007615 -0.007615 -0.007615
-0.007089 -0.007089 -0.007089
-0.006566 -0.006566 -0.006566
-0.006046 -0.006046 -0.006046
-0.005528 -0.005528 -0.005528
-0.005013 -0.005013 -0.005013
-0.004501 -0.004501 -0.004501
-0.003991 -0.003991 -0.003991
-0.003483 -0.003483 -0.003483
-0.002978 -0.002978 -0.002978
-0.002476 -0.002476 -0.002476
-0.001976 -0.001976 -0.001976
-0.001478 -0.001478 -0.001478
-0.000983 -0.000983 -0.000983
-0.000490 -0.000490 -0.000490
-0.000000 -0.000000 -0.000000
0.000490 0.000490 0.000490
0.000983 0.000983 0.000983
0.001478 0.001478 0.001478
0.001975 0.001975 0.001975
0.002475 0.002475 0.002475
0.002978 0.002978 0.002978
0.003483 0.003483 0.003483
0.003990 0.003990 0.003990
0.004500 0.004500 0.004500
0.005013 0.005013 0.005013
0.005528 0.005528 0.005528
0.006046 0.006046 0.006046
0.006566 0.006566 0.006566
0.007089 0.007089 0.007089
0.007614 0.007614 0.007614
0.008142 0.008142 0.008142
0.008673 0.008673 0.008673
0.009206 0.009206 0.009206
0.009743 0.009743 0.009743
0.010281 0.010281 0.010281
0.010823 0.010823 0.010823
0.011367 0.011367 0.011367
0.011913 0.011913 0.011913
0.012463 0.012463 0.012463
0.013015 0.013015 0.013015
0.013570 0.013570 0.013570
0.014128 0.014128 0.014128
0.014688 0.014688 0.014688
0.015252 0.015252 0.015252
0.015818 0.015818 0.015818
0.016387 0.016387 0.016387
0.016959 0.016959 0.016959
0.017533 0.017533 0.017533
0.018111 0.018111 0.018111
0.018691 0.018691 0.018691
0.019274 0.019274 0.019274
0.019860 0.019860 0.019860
0.020449 0.020449 0.020449
0.021042 0.021042 0.021042
0.021636 0.021636 0.021636
0.022234 0.022234 0.022234
0.022835 0.022835 0.022835
0.023439 0.023439 0.023439
0.024046 0.024046 0.024046
0.024656 0.024656 0.024656
0.025269 0.025269 0.025269
0.025885 0.025885 0.025885
0.026504 0.026504 0.026504
0.027126 0.027126 0.027126
0.027751 0.027751 0.027751
0.028380 0.028380 0.028380
0.029011 0.029011 0.029011
0.029646 0.029646 0.029646
0.030284 0.030284 0.030284
0.030925 0.030925 0.030925
0.031569 0.031569 0.031569
0.032216 0.032216 0.032216
0.032867 0.032867 0.032867
0.033521 0.033521 0.033521
0.034178 0.034178 0.034178
0.034838 0.034838 0.034838
0.035502 0.035502 0.035502
0.036169 0.036169 0.036169
0.036839 0.036839 0.036839
0.037513 0.037513 0.037513
0.038190 0.038190 0.038190
0.038870 0.038870 0.038870
0.039554 0.039554 0.039554
0.040241 0.040241 0.040241
0.040932 0.040932 0.040932
0.041626 0.041626 0.041626
0.042323 0.042323 0.042323
0.043024 0.043024 0.043024
0.043728 0.043728 0.043728
0.044436 0.044436 0.044436
0.045148 0.045148 0.045148
0.045863 0.045863 0.045863
0.046581 0.046581 0.046581
0.047303 0.047303 0.047303
0.048029 0.048029 0.048029
0.048759 0.048759 0.048759
0.049492 0.049492 0.049492
0.050228 0.050228 0.050228
0.050968 0.050968 0.050968
0.051712 0.051712 0.051712
0.052460 0.052460 0.052460
0.053212 0.053212 0.053212
0.053967 0.053967 0.053967
0.054726 0.054726 0.054726
0.055488 0.055488 0.055488
0.056255 0.056255 0.056255
0.057025 0.057025 0.057025
0.057799 0.057799 0.057799
0.058577 0.058577 0.058577
0.059359 0.059359 0.059359
0.060145 0.060145 0.060145
0.060935 0.060935 0.060935
0.061728 0.061728 0.061728
0.062526 0.062526 0.062526
0.063327 0.063327 0.063327
0.064133 0.064133 0.064133
0.064943 0.064943 0.064943
0.065756 0.065756 0.065756
0.066574 0.066574 0.066574
0.067395 0.067395 0.067395
0.068221 0.068221 0.068221
0.069051 0.069051 0.069051
0.069885 0.069885 0.069885
0.070723 0.070723 0.070723
0.071566 0.071566 0.071566
0.072412 0.072412 0.072412
0.073263 0.073263 0.073263
0.074118 0.074118 0.074118
0.074977 0.074977 0.074977
0.075841 0.075841 0.075841
0.076709 0.076709 0.076709
0.077581 0.077581 0.077581
0.078457 0.078457 0.078457
0.079338 0.079338 0.079338
0.080224 0.080224 0.080224
0.081113 0.081113 0.081113
0.082007 0.082007 0.082007
0.082906 0.082906 0.082906
0.083809 0.083809 0.083809
0.084717 0.084717 0.084717
0.085629 0.085629 0.085629
0.086545 0.086545 0.086545
0.087466 0.087466 0.087466
0.088392 0.088392 0.088392
0.089322 0.089322 0.089322
0.090257 0.090257 0.090257
0.091197 0.091197 0.091197
0.092141 0.092141 0.092141
0.093090 0.093090 0.093090
0.094044 0.094044 0.094044
0.095003 0.095003 0.095003
0.095966 0.095966 0.095966
0.096934 0.096934 0.096934
0.097907 0.097907 0.097907
0.098885 0.098885 0.098885
0.099867 0.099867 0.099867
0.100855 0.100855 0.100855
0.101847 0.101847 0.101847
0.102845 0.102845 0.102845
0.103847 0.103847 0.103847
0.104854 0.104854 0.104854
0.105867 0.105867 0.105867
0.106884 0.106884 0.106884
0.107906 0.107906 0.107906
0.108934 0.108934 0.108934
0.109967 0.109967 0.109967
0.111004 0.111004 0.111004
0.112047 0.112047 0.112047
0.113095 0.113095 0.113095
0.114149 0.114149 0.114149
0.115207 0.115207 0.115207
0.116271 0.116271 0.116271
0.117341 0.117341 0.117341
0.118415 0.118415 0.118415
0.119495 0.119495 0.119495
0.120580 0.120580 0.120580
0.121671 0.121671 0.121671
0.122767 0.122767 0.122767
0.123868 0.123868 0.123868
0.124975 0.124975 0.124975
0.126088 0.126088 0.126088
0.127206 0.127206 0.127206
0.128330 0.128330 0.128330
0.129459 0.129459 0.129459
0.130594 0.130594 0.130594
0.131734 0.131734 0.131734
0.132881 0.132881 0.132881
0.134032 0.134032 0.134032
0.135190 0.135190 0.135190
0.136354 0.136354 0.136354
0.137523 0.137523 0.137523
0.138698 0.138698 0.138698
0.139879 0.139879 0.139879
0.141065 0.141065 0.141065
0.142258 0.142258 0.142258
0.143457 0.143457 0.143457
0.144661 0.144661 0.144661
0.145872 0.145872 0.145872
0.147088 0.147088 0.147088
0.148311 0.148311 0.148311
0.149540 0.149540 0.149540
0.150775 0.150775 0.150775
0.152016 0.152016 0.152016
0.153263 0.153263 0.153263
0.154516 0.154516 0.154516
0.155776 0.155776 0.155776
0.157042 0.157042 0.157042
0.158314 0.158314 0.158314
0.159593 0.159593 0.159593
0.160878 0.160878 0.160878
0.162169 0.162169 0.162169
0.163467 0.163467 0.163467
0.164771 0.164771 0.164771
0.166082 0.166082 0.166082
0.167399 0.167399 0.167399
0.168723 0.168723 0.168723
0.170053 0.170053 0.170053
0.171390 0.171390 0.171390
0.172734 0.172734 0.172734
0.174084 0.174084 0.174084
0.175441 0.175441 0.175441
0.176805 0.176805 0.176805
0.178176 0.178176 0.178176
0.179553 0.179553 0.179553
0.180938 0.180938 0.180938
0.182329 0.182329 0.182329
0.183727 0.183727 0.183727
0.185132 0.185132 0.185132
0.186544 0.186544 0.186544
0.187963 0.187963 0.187963
0.189390 0.189390 0.189390
0.190823 0.190823 0.190823
0.192263 0.192263 0.192263
0.193711 0.193711 0.193711
0.195166 0.195166 0.195166
0.196628 0.196628 0.196628
0.198097 0.198097 0.198097
0.199574 0.199574 0.199574
0.201058 0.201058 0.201058
0.202549 0.202549 0.202549
0.204048 0.204048 0.204048
0.205555 0.205555 0.205555
0.207068 0.207068 0.207068
0.208590 0.208590 0.208590
0.210119 0.210119 0.210119
0.211655 0.211655 0.211655
0.213199 0.213199 0.213199
0.214751 0.214751 0.214751
0.216311 0.216311 0.216311
0.217878 0.217878 0.217878
0.219453 0.219453 0.219453
0.221037 0.221037 0.221037
0.222627 0.222627 0.222627
0.224226 0.224226 0.224226
0.225833 0.225833 0.225833
0.227448 0.227448 0.227448
0.229071 0.229071 0.229071
0.230702 0.230702 0.230702
0.232341 0.232341 0.232341
0.233988 0.233988 0.233988
0.235643 0.235643 0.235643
0.237307 0.237307 0.237307
0.238979 0.238979 0.238979
0.240659 0.240659 0.240659
0.242348 0.242348 0.242348
0.244045 0.244045 0.244045
0.245750 0.245750 0.245750
0.247464 0.247464 0.247464
0.249187 0.249187 0.249187
0.250918 0.250918 0.250918
0.252658 0.252658 0.252658
0.254406 0.254406 0.254406
0.256163 0.256163 0.256163
0.257929 0.257929 0.257929
0.259704 0.259704 0.259704
0.261487 0.261487 0.261487
0.263280 0.263280 0.263280
0.265081 0.265081 0.265081
0.266891 0.266891 0.266891
0.268710 0.268710 0.268710
0.270539 0.270539 0.270539
0.272376 0.272376 0.272376
0.274223 0.274223 0.274223
0.276078 0.276078 0.276078
0.277943 0.277943 0.277943
0.279818 0.279818 0.279818
0.281701 0.281701 0.281701
0.283594 0.283594 0.283594
0.285497 0.285497 0.285497
0.287409 0.287409 0.287409
0.289330 0.289330 0.289330
0.291261 0.291261 0.291261
0.293202 0.293202 0.293202
0.295152 0.295152 0.295152
0.297112 0.297112 0.297112
0.299082 0.299082 0.299082
0.301062 0.301062 0.301062
0.303051 0.303051 0.303051
0.305050 0.305050 0.305050
0.307060 0.307060 0.307060
0.309079 0.309079 0.309079
0.311108 0.311108 0.311108
0.313148 0.313148 0.313148
0.315197 0.315197 0.315197
0.317257 0.317257 0.317257
0.319327 0.319327 0.319327
0.321408 0.321408 0.321408
0.323499 0.323499 0.323499
0.325600 0.325600 0.325600
0.327711 0.327711 0.327711
0.329833 0.329833 0.329833
0.331966 0.331966 0.331966
0.334110 0.334110 0.334110
0.336264 0.336264 0.336264
0.338428 0.338428 0.338428
0.340604 0.340604 0.340604
0.342790 0.342790 0.342790
0.344987 0.344987 0.344987
0.347196 0.347196 0.347196
0.349415 0.349415 0.349415
0.351645 0.351645 0.351645
0.353886 0.353886 0.353886
0.356139 0.356139 0.356139
0.358403 0.358403 0.358403
0.360678 0.360678 0.360678
0.362964 0.362964 0.362964
0.365262 0.365262 0.365262
0.367571 0.367571 0.367571
0.369891 0.369891 0.369891
0.372224 0.372224 0.372224
0.374567 0.374567 0.374567
0.376923 0.376923 0.376923
0.379290 0.379290 0.379290
0.381669 0.381669 0.381669
0.384060 0.384060 0.384060
0.386463 0.386463 0.386463
0.388877 0.388877 0.388877
0.391304 0.391304 0.391304
0.393743 0.393743 0.393743
0.396194 0.396194 0.396194
0.398657 0.398657 0.398657
0.401133 0.401133 0.401133
0.403620 0.403620 0.403620
0.406121 0.406121 0.406121
0.408633 0.408633 0.408633
0.411158 0.411158 0.411158
0.413696 0.413696 0.413696
0.416246 0.416246 0.416246
0.418809 0.418809 0.418809
0.421385 0.421385 0.421385
0.423974 0.423974 0.423974
0.426575 0.426575 0.426575
0.429190 0.429190 0.429190
0.431817 0.431817 0.431817
0.434458 0.434458 0.434458
0.437112 0.437112 0.437112
0.439779 0.439779 0.439779
0.442459 0.442459 0.442459
0.445153 0.445153 0.445153
0.447860 0.447860 0.447860
0.450580 0.450580 0.450580
0.453314 0.453314 0.453314
0.456062 0.456062 0.456062
0.458823 0.458823 0.458823
0.461598 0.461598 0.461598
0.464387 0.464387 0.464387
0.467190 0.467190 0.467190
0.470007 0.470007 0.470007
0.472837 0.472837 0.472837
0.475682 0.475682 0.475682
0.478541 0.478541 0.478541
0.481415 0.481415 0.481415
0.484302 0.484302 0.484302
0.487204 0.487204 0.487204
0.490120 0.490120 0.490120
0.493051 0.493051 0.493051
0.495997 0.495997 0.495997
0.498957 0.498957 0.498957
0.501932 0.501932 0.501932
0.504922 0.504922 0.504922
0.507926 0.507926 0.507926
0.510946 0.510946 0.510946
0.513981 0.513981 0.513981
0.517030 0.517030 0.517030
0.520095 0.520095 0.520095
0.523176 0.523176 0.523176
0.526271 0.526271 0.526271
0.529382 0.529382 0.529382
0.532509 0.532509 0.532509
0.535651 0.535651 0.535651
0.538808 0.538808 0.538808
0.541982 0.541982 0.541982
0.545171 0.545171 0.545171
0.548376 0.548376 0.548376
0.551597 0.551597 0.551597
0.554834 0.554834 0.554834
0.558087 0.558087 0.558087
0.561357 0.561357 0.561357
0.564642 0.564642 0.564642
0.567944 0.567944 0.567944
0.571263 0.571263 0.571263
0.574598 0.574598 0.574598
0.577950 0.577950 0.577950
0.581318 0.581318 0.581318
0.584703 0.584703 0.584703
0.588105 0.588105 0.588105
0.591524 0.591524 0.591524
0.594960 0.594960 0.594960
0.598413 0.598413 0.598413
0.601883 0.601883 0.601883
0.605371 0.605371 0.605371
0.608875 0.608875 0.608875
0.612398 0.612398 0.612398
0.615938 0.615938 0.615938
0.619495 0.619495 0.619495
0.623070 0.623070 0.623070
0.626663 0.626663 0.626663
0.630274 0.630274 0.630274
0.633903 0.633903 0.633903
0.637550 0.637550 0.637550
0.641215 0.641215 0.641215
0.644899 0.644899 0.644899
0.648600 0.648600 0.648600
0.652321 0.652321 0.652321
0.656059 0.656059 0.656059
0.659817 0.659817 0.659817
0.663593 0.663593 0.663593
0.667387 0.667387 0.667387
0.671201 0.671201 0.671201
0.675034 0.675034 0.675034
0.678886 0.678886 0.678886
0.682757 0.682757 0.682757
0.686647 0.686647 0.686647
0.690556 0.690556 0.690556
0.694485 0.694485 0.694485
0.698434 0.698434 0.698434
0.702402 0.702402 0.702402
0.706391 0.706391 0.706391
0.710399 0.710399 0.710399
0.714426 0.714426 0.714426
0.718474 0.718474 0.718474
0.722543 0.722543 0.722543
0.726631 0.726631 0.726631
0.730740 0.730740 0.730740
0.734869 0.734869 0.734869
0.739019 0.739019 0.739019
0.743189 0.743189 0.743189
0.747380 0.747380 0.747380
0.751592 0.751592 0.751592
0.755825 0.755825 0.755825
0.760079 0.760079 0.760079
0.764355 0.764355 0.764355
0.768651 0.768651 0.768651
0.772969 0.772969 0.772969
0.777309 0.777309 0.777309
0.781670 0.781670 0.781670
0.786053 0.786053 0.786053
0.790458 0.790458 0.790458
0.794884 0.794884 0.794884
0.799333 0.799333 0.799333
0.803804 0.803804 0.803804
0.808297 0.808297 0.808297
0.812812 0.812812 0.812812
0.817350 0.817350 0.817350
0.821910 0.821910 0.821910
0.826494 0.826494 0.826494
0.831100 0.831100 0.831100
0.835729 0.835729 0.835729
0.840381 0.840381 0.840381
0.845056 0.845056 0.845056
0.849754 0.849754 0.849754
0.854476 0.854476 0.854476
0.859222 0.859222 0.859222
0.863991 0.863991 0.863991
0.868784 0.868784 0.868784
0.873600 0.873600 0.873600
0.878441 0.878441 0.878441
0.883306 0.883306 0.883306
0.888195 0.888195 0.888195
0.893108 0.893108 0.893108
0.898046 0.898046 0.898046
0.903008 0.903008 0.903008
0.907995 0.907995 0.907995
0.913007 0.913007 0.913007
0.918044 0.918044 0.918044
0.923106 0.923106 0.923106
0.928193 0.928193 0.928193
0.933306 0.933306 0.933306
0.938444 0.938444 0.938444
0.943607 0.943607 0.943607
0.948796 0.948796 0.948796
0.954012 0.954012 0.954012
0.959253 0.959253 0.959253
0.964520 0.964520 0.964520
0.969813 0.969813 0.969813
0.975133 0.975133 0.975133
0.980479 0.980479 0.980479
0.985852 0.985852 0.985852
0.991252 0.991252 0.991252
0.996678 0.996678 0.996678
1.002132 1.002132 1.002132
1.007613 1.007613 1.007613
1.013121 1.013121 1.013121
1.018656 1.018656 1.018656
1.024219 1.024219 1.024219
1.029810 1.029810 1.029810
1.035428 1.035428 1.035428
1.041075 1.041075 1.041075
1.046750 1.046750 1.046750
1.052452 1.052452 1.052452
1.058184 1.058184 1.058184
1.063944 1.063944 1.063944
1.069732 1.069732 1.069732
1.075550 1.075550 1.075550
1.081396 1.081396 1.081396
1.087271 1.087271 1.087271
1.093176 1.093176 1.093176
1.099110 1.099110 1.099110
1.105074 1.105074 1.105074
1.111067 1.111067 1.111067
1.117090 1.117090 1.117090
1.123144 1.123144 1.123144
1.129227 1.129227 1.129227
1.135341 1.135341 1.135341
1.141485 1.141485 1.141485
1.147659 1.147659 1.147659
1.153865 1.153865 1.153865
1.160101 1.160101 1.160101
1.166369 1.166369 1.166369
1.172667 1.172667 1.172667
1.178997 1.178997 1.178997
1.185359 1.185359 1.185359
1.191752 1.191752 1.191752
1.198177 1.198177 1.198177
1.204634 1.204634 1.204634
1.211123 1.211123 1.211123
1.217644 1.217644 1.217644
1.224198 1.224198 1.224198
1.230785 1.230785 1.230785
1.237404 1.237404 1.237404
1.244057 1.244057 1.244057
1.250742 1.250742 1.250742
1.257461 1.257461 1.257461
1.264213 1.264213 1.264213
1.270999 1.270999 1.270999
1.277819 1.277819 1.277819
1.284672 1.284672 1.284672
1.291560 1.291560 1.291560
1.298482 1.298482 1.298482
1.305439 1.305439 1.305439
1.312430 1.312430 1.312430
1.319456 1.319456 1.319456
1.326517 1.326517 1.326517
1.333613 1.333613 1.333613
1.340744 1.340744 1.340744
1.347911 1.347911 1.347911
1.355114 1.355114 1.355114
1.362353 1.362353 1.362353
1.369627 1.369627 1.369627
1.376938 1.376938 1.376938
1.384285 1.384285 1.384285
1.391669 1.391669 1.391669
1.399090 1.399090 1.399090
1.406547 1.406547 1.406547
1.414042 1.414042 1.414042
1.421574 1.421574 1.421574
1.429143 1.429143 1.429143
1.436751 1.436751 1.436751
1.444396 1.444396 1.444396
1.452079 1.452079 1.452079
1.459800 1.459800 1.459800
1.467560 1.467560 1.467560
1.475359 1.475359 1.475359
1.483196 1.483196 1.483196
1.491072 1.491072 1.491072
1.498988 1.498988 1.498988
1.506943 1.506943 1.506943
1.514938 1.514938 1.514938
1.522972 1.522972 1.522972
1.531047 1.531047 1.531047
1.539161 1.539161 1.539161
1.547316 1.547316 1.547316
1.555512 1.555512 1.555512
1.563749 1.563749 1.563749
1.572026 1.572026 1.572026
1.580345 1.580345 1.580345
1.588705 1.588705 1.588705
1.597107 1.597107 1.597107
1.605551 1.605551 1.605551
1.614036 1.614036 1.614036
1.622564 1.622564 1.622564
1.631135 1.631135 1.631135
1.639748 1.639748 1.639748
1.648404 1.648404 1.648404
1.657103 1.657103 1.657103
1.665845 1.665845 1.665845
1.674631 1.674631 1.674631
1.683461 1.683461 1.683461
1.692335 1.692335 1.692335
1.701253 1.701253 1.701253
1.710215 1.710215 1.710215
1.719222 1.719222 1.719222
1.728274 1.728274 1.728274
1.737370 1.737370 1.737370
1.746513 1.746513 1.746513
1.755700 1.755700 1.755700
1.764934 1.764934 1.764934
1.774213 1.774213 1.774213
1.783539 1.783539 1.783539
1.792911 1.792911 1.792911
1.802330 1.802330 1.802330
1.811795 1.811795 1.811795
1.821308 1.821308 1.821308
1.830868 1.830868 1.830868
1.840476 1.840476 1.840476
1.850132 1.850132 1.850132
1.859835 1.859835 1.859835
1.869587 1.869587 1.869587
1.879388 1.879388 1.879388
1.889237 1.889237 1.889237
1.899136 1.899136 1.899136
1.909083 1.909083 1.909083
1.919081 1.919081 1.919081
1.929128 1.929128 1.929128
1.939225 1.939225 1.939225
1.949372 1.949372 1.949372
1.959570 1.959570 1.959570
1.969819 1.969819 1.969819
1.980119 1.980119 1.980119
1.990470 1.990470 1.990470
2.000872 2.000872 2.000872
2.011327 2.011327 2.011327
2.021833 2.021833 2.021833
2.032392 2.032392 2.032392
2.043003 2.043003 2.043003
2.053667 2.053667 2.053667
2.064385 2.064385 2.064385
2.075155 2.075155 2.075155
2.085980 2.085980 2.085980
2.096858 2.096858 2.096858
2.107790 2.107790 2.107790
2.118777 2.118777 2.118777
2.129819 2.129819 2.129819
2.140915 2.140915 2.140915
2.152067 2.152067 2.152067
2.163274 2.163274 2.163274
2.174537 2.174537 2.174537
2.185856 2.185856 2.185856
2.197232 2.197232 2.197232
2.208664 2.208664 2.208664
2.220153 2.220153 2.220153
2.231700 2.231700 2.231700
2.243304 2.243304 2.243304
2.254965 2.254965 2.254965
2.266685 2.266685 2.266685
2.278463 2.278463 2.278463
2.290300 2.290300 2.290300
2.302196 2.302196 2.302196
2.314151 2.314151 2.314151
2.326165 2.326165 2.326165
2.338239 2.338239 2.338239
2.350374 2.350374 2.350374
2.362569 2.362569 2.362569
2.374824 2.374824 2.374824
2.387141 2.387141 2.387141
2.399519 2.399519 2.399519
2.411959 2.411959 2.411959
2.424460 2.424460 2.424460
2.437024 2.437024 2.437024
2.449650 2.449650 2.449650
2.462340 2.462340 2.462340
2.475092 2.475092 2.475092
2.487908 2.487908 2.487908
2.500788 2.500788 2.500788
2.513732 2.513732 2.513732
2.526740 2.526740 2.526740
2.539813 2.539813 2.539813
2.552952 2.552952 2.552952
2.566155 2.566155 2.566155
2.579425 2.579425 2.579425
2.592760 2.592760 2.592760
2.606162 2.606162 2.606162
2.619631 2.619631 2.619631
2.633167 2.633167 2.633167
2.646770 2.646770 2.646770
2.660441 2.660441 2.660441
2.674180 2.674180 2.674180
2.687987 2.687987 2.687987
2.701863 2.701863 2.701863
2.715808 2.715808 2.715808
2.729823 2.729823 2.729823
2.743908 2.743908 2.743908
2.758062 2.758062 2.758062
2.772287 2.772287 2.772287
2.786583 2.786583 2.786583
2.800951 2.800951 2.800951
2.815389 2.815389 2.815389
2.829900 2.829900 2.829900
2.844483 2.844483 2.844483
2.859138 2.859138 2.859138
2.873867 2.873867 2.873867
2.888669 2.888669 2.888669
2.903544 2.903544 2.903544
2.918494 2.918494 2.918494
2.933518 2.933518 2.933518
2.948617 2.948617 2.948617
2.963791 2.963791 2.963791
2.979041 2.979041 2.979041
2.994366 2.994366 2.994366
3.009768 3.009768 3.009768
3.025247 3.025247 3.025247
3.040802 3.040802 3.040802
3.056435 3.056435 3.056435
3.072146 3.072146 3.072146
3.087936 3.087936 3.087936
3.103804 3.103804 3.103804
3.119751 3.119751 3.119751
3.135777 3.135777 3.135777
3.151883 3.151883 3.151883
3.168069 3.168069 3.168069
3.184336 3.184336 3.184336
3.200684 3.200684 3.200684
3.217114 3.217114 3.217114
3.233625 3.233625 3.233625
3.250218 3.250218 3.250218
3.266894 3.266894 3.266894
3.283653 3.283653 3.283653
3.300496 3.300496 3.300496
3.317422 3.317422 3.317422
3.334433 3.334433 3.334433
3.351528 3.351528 3.351528
3.368709 3.368709 3.368709
3.385975 3.385975 3.385975
3.403327 3.403327 3.403327
3.420766 3.420766 3.420766
3.438291 3.438291 3.438291
3.455904 3.455904 3.455904
3.473604 3.473604 3.473604
3.491392 3.491392 3.491392
3.509269 3.509269 3.509269
3.527236 3.527236 3.527236
3.545291 3.545291 3.545291
3.563437 3.563437 3.563437
3.581672 3.581672 3.581672
3.599999 3.599999 3.599999
3.618417 3.618417 3.618417
3.636927 3.636927 3.636927
3.655528 3.655528 3.655528
3.674223 3.674223 3.674223
3.693010 3.693010 3.693010
3.711892 3.711892 3.711892
3.730867 3.730867 3.730867
3.749936 3.749936 3.749936
3.769101 3.769101 3.769101
