matplotlib/gamma_curve/data/cl2.cube
# Gamma : Canon Log 2 to Linear
# Range : Full in / Linear out
# Version : 2.0 2016/10/27
# Copyright(c) 2016 Canon Inc. All Rights Reserved.

LUT_1D_SIZE 1024
-0.016363 -0.016363 -0.016363
-0.016105 -0.016105 -0.016105
-0.015849 -0.015849 -0.015849
-0.015595 -0.015595 -0.015595
-0.015344 -0.015344 -0.015344
-0.015095 -0.015095 -0.015095
-0.014848 -0.014848 -0.014848
-0.014604 -0.014604 -0.014604
-0.014362 -0.014362 -0.014362
-0.014122 -0.014122 -0.014122
-0.013884 -0.013884 -0.013884
-0.013649 -0.013649 -0.013649
-0.013415 -0.013415 -0.013415
-0.013184 -0.013184 -0.013184
-0.012955 -0.012955 -0.012955
-0.012728 -0.012728 -0.012728
-0.012504 -0.012504 -0.012504
-0.012281 -0.012281 -0.012281
-0.012061 -0.012061 -0.012061
-0.011842 -0.011842 -0.011842
-0.011626 -0.011626 -0.011626
-0.011411 -0.011411 -0.011411
-0.011199 -0.011199 -0.011199
-0.010988 -0.010988 -0.010988
-0.010779 -0.010779 -0.010779
-0.010573 -0.010573 -0.010573
-0.010368 -0.010368 -0.010368
-0.010165 -0.010165 -0.010165
-0.009964 -0.009964 -0.009964
-0.009765 -0.009765 -0.009765
-0.009568 -0.009568 -0.009568
-0.009373 -0.009373 -0.009373
-0.009179 -0.009179 -0.009179
-0.008987 -0.008987 -0.008987
-0.008797 -0.008797 -0.008797
-0.008609 -0.008609 -0.008609
-0.008423 -0.008423 -0.008423
-0.008238 -0.008238 -0.008238
-0.008055 -0.008055 -0.008055
-0.007874 -0.007874 -0.007874
-0.007694 -0.007694 -0.007694
-0.007516 -0.007516 -0.007516
-0.007340 -0.007340 -0.007340
-0.007165 -0.007165 -0.007165
-0.006992 -0.006992 -0.006992
-0.006820 -0.006820 -0.006820
-0.006650 -0.006650 -0.006650
-0.006482 -0.006482 -0.006482
-0.006315 -0.006315 -0.006315
-0.006150 -0.006150 -0.006150
-0.005987 -0.005987 -0.005987
-0.005824 -0.005824 -0.005824
-0.005664 -0.005664 -0.005664
-0.005505 -0.005505 -0.005505
-0.005347 -0.005347 -0.005347
-0.005191 -0.005191 -0.005191
-0.005036 -0.005036 -0.005036
-0.004883 -0.004883 -0.004883
-0.004731 -0.004731 -0.004731
-0.004580 -0.004580 -0.004580
-0.004431 -0.004431 -0.004431
-0.004284 -0.004284 -0.004284
-0.004137 -0.004137 -0.004137
-0.003992 -0.003992 -0.003992
-0.003849 -0.003849 -0.003849
-0.003706 -0.003706 -0.003706
-0.003565 -0.003565 -0.003565
-0.003426 -0.003426 -0.003426
-0.003287 -0.003287 -0.003287
-0.003150 -0.003150 -0.003150
-0.003014 -0.003014 -0.003014
-0.002880 -0.002880 -0.002880
-0.002747 -0.002747 -0.002747
-0.002615 -0.002615 -0.002615
-0.002484 -0.002484 -0.002484
-0.002354 -0.002354 -0.002354
-0.002226 -0.002226 -0.002226
-0.002098 -0.002098 -0.002098
-0.001972 -0.001972 -0.001972
-0.001847 -0.001847 -0.001847
-0.001724 -0.001724 -0.001724
-0.001601 -0.001601 -0.001601
-0.001480 -0.001480 -0.001480
-0.001359 -0.001359 -0.001359
-0.001240 -0.001240 -0.001240
-0.001122 -0.001122 -0.001122
-0.001005 -0.001005 -0.001005
-0.000889 -0.000889 -0.000889
-0.000774 -0.000774 -0.000774
-0.000661 -0.000661 -0.000661
-0.000548 -0.000548 -0.000548
-0.000436 -0.000436 -0.000436
-0.000326 -0.000326 -0.000326
-0.000216 -0.000216 -0.000216
-0.000108 -0.000108 -0.000108
0.000000 0.000000 0.000000
0.000108 0.000108 0.000108
0.000216 0.000216 0.000216
0.000326 0.000326 0.000326
0.000436 0.000436 0.000436
0.000548 0.000548 0.000548
0.000661 0.000661 0.000661
0.000774 0.000774 0.000774
0.000889 0.000889 0.000889
0.001005 0.001005 0.001005
0.001122 0.001122 0.001122
0.001240 0.001240 0.001240
0.001359 0.001359 0.001359
0.001480 0.001480 0.001480
0.001601 0.001601 0.001601
0.001724 0.001724 0.001724
0.001847 0.001847 0.001847
0.001972 0.001972 0.001972
0.002098 0.002098 0.002098
0.002226 0.002226 0.002226
0.002354 0.002354 0.002354
0.002484 0.002484 0.002484
0.002615 0.002615 0.002615
0.002747 0.002747 0.002747
0.002880 0.002880 0.002880
0.003014 0.003014 0.003014
0.003150 0.003150 0.003150
0.003287 0.003287 0.003287
0.003426 0.003426 0.003426
0.003565 0.003565 0.003565
0.003706 0.003706 0.003706
0.003849 0.003849 0.003849
0.003992 0.003992 0.003992
0.004137 0.004137 0.004137
0.004284 0.004284 0.004284
0.004431 0.004431 0.004431
0.004580 0.004580 0.004580
0.004731 0.004731 0.004731
0.004883 0.004883 0.004883
0.005036 0.005036 0.005036
0.005191 0.005191 0.005191
0.005347 0.005347 0.005347
0.005505 0.005505 0.005505
0.005664 0.005664 0.005664
0.005824 0.005824 0.005824
0.005987 0.005987 0.005987
0.006150 0.006150 0.006150
0.006315 0.006315 0.006315
0.006482 0.006482 0.006482
0.006650 0.006650 0.006650
0.006820 0.006820 0.006820
0.006992 0.006992 0.006992
0.007165 0.007165 0.007165
0.007340 0.007340 0.007340
0.007516 0.007516 0.007516
0.007694 0.007694 0.007694
0.007874 0.007874 0.007874
0.008055 0.008055 0.008055
0.008238 0.008238 0.008238
0.008423 0.008423 0.008423
0.008609 0.008609 0.008609
0.008797 0.008797 0.008797
0.008987 0.008987 0.008987
0.009179 0.009179 0.009179
0.009373 0.009373 0.009373
0.009568 0.009568 0.009568
0.009765 0.009765 0.009765
0.009964 0.009964 0.009964
0.010165 0.010165 0.010165
0.010368 0.010368 0.010368
0.010573 0.010573 0.010573
0.010779 0.010779 0.010779
0.010988 0.010988 0.010988
0.011199 0.011199 0.011199
0.011411 0.011411 0.011411
0.011626 0.011626 0.011626
0.011842 0.011842 0.011842
0.012061 0.012061 0.012061
0.012281 0.012281 0.012281
0.012504 0.012504 0.012504
0.012728 0.012728 0.012728
0.012955 0.012955 0.012955
0.013184 0.013184 0.013184
0.013415 0.013415 0.013415
0.013649 0.013649 0.013649
0.013884 0.013884 0.013884
0.014122 0.014122 0.014122
0.014362 0.014362 0.014362
0.014604 0.014604 0.014604
0.014848 0.014848 0.014848
0.015095 0.015095 0.015095
0.015344 0.015344 0.015344
0.015595 0.015595 0.015595
0.015849 0.015849 0.015849
0.016105 0.016105 0.016105
0.016363 0.016363 0.016363
0.016624 0.016624 0.016624
0.016887 0.016887 0.016887
0.017153 0.017153 0.017153
0.017421 0.017421 0.017421
0.017692 0.017692 0.017692
0.017966 0.017966 0.017966
0.018242 0.018242 0.018242
0.018520 0.018520 0.018520
0.018801 0.018801 0.018801
0.019085 0.019085 0.019085
0.019371 0.019371 0.019371
0.019660 0.019660 0.019660
0.019952 0.019952 0.019952
0.020246 0.020246 0.020246
0.020544 0.020544 0.020544
0.020844 0.020844 0.020844
0.021147 0.021147 0.021147
0.021452 0.021452 0.021452
0.021761 0.021761 0.021761
0.022072 0.022072 0.022072
0.022387 0.022387 0.022387
0.022704 0.022704 0.022704
0.023024 0.023024 0.023024
0.023348 0.023348 0.023348
0.023674 0.023674 0.023674
0.024003 0.024003 0.024003
0.024336 0.024336 0.024336
0.024671 0.024671 0.024671
0.025010 0.025010 0.025010
0.025352 0.025352 0.025352
0.025697 0.025697 0.025697
0.026045 0.026045 0.026045
0.026397 0.026397 0.026397
0.026752 0.026752 0.026752
0.027110 0.027110 0.027110
0.027472 0.027472 0.027472
0.027837 0.027837 0.027837
0.028205 0.028205 0.028205
0.028577 0.028577 0.028577
0.028952 0.028952 0.028952
0.029331 0.029331 0.029331
0.029713 0.029713 0.029713
0.030099 0.030099 0.030099
0.030489 0.030489 0.030489
0.030882 0.030882 0.030882
0.031279 0.031279 0.031279
0.031680 0.031680 0.031680
0.032084 0.032084 0.032084
0.032492 0.032492 0.032492
0.032904 0.032904 0.032904
0.033320 0.033320 0.033320
0.033740 0.033740 0.033740
0.034163 0.034163 0.034163
0.034591 0.034591 0.034591
0.035023 0.035023 0.035023
0.035458 0.035458 0.035458
0.035898 0.035898 0.035898
0.036342 0.036342 0.036342
0.036790 0.036790 0.036790
0.037242 0.037242 0.037242
0.037699 0.037699 0.037699
0.038160 0.038160 0.038160
0.038625 0.038625 0.038625
0.039094 0.039094 0.039094
0.039568 0.039568 0.039568
0.040046 0.040046 0.040046
0.040529 0.040529 0.040529
0.041016 0.041016 0.041016
0.041508 0.041508 0.041508
0.042005 0.042005 0.042005
0.042506 0.042506 0.042506
0.043012 0.043012 0.043012
0.043522 0.043522 0.043522
0.044038 0.044038 0.044038
0.044558 0.044558 0.044558
0.045083 0.045083 0.045083
0.045613 0.045613 0.045613
0.046148 0.046148 0.046148
0.046688 0.046688 0.046688
0.047233 0.047233 0.047233
0.047783 0.047783 0.047783
0.048338 0.048338 0.048338
0.048898 0.048898 0.048898
0.049464 0.049464 0.049464
0.050035 0.050035 0.050035
0.050611 0.050611 0.050611
0.051193 0.051193 0.051193
0.051780 0.051780 0.051780
0.052373 0.052373 0.052373
0.052971 0.052971 0.052971
0.053575 0.053575 0.053575
0.054185 0.054185 0.054185
0.054800 0.054800 0.054800
0.055421 0.055421 0.055421
0.056048 0.056048 0.056048
0.056680 0.056680 0.056680
0.057319 0.057319 0.057319
0.057964 0.057964 0.057964
0.058614 0.058614 0.058614
0.059271 0.059271 0.059271
0.059934 0.059934 0.059934
0.060603 0.060603 0.060603
0.061278 0.061278 0.061278
0.061960 0.061960 0.061960
0.062648 0.062648 0.062648
0.063343 0.063343 0.063343
0.064044 0.064044 0.064044
0.064751 0.064751 0.064751
0.065466 0.065466 0.065466
0.066186 0.066186 0.066186
0.066914 0.066914 0.066914
0.067649 0.067649 0.067649
0.068390 0.068390 0.068390
0.069138 0.069138 0.069138
0.069894 0.069894 0.069894
0.070656 0.070656 0.070656
0.071426 0.071426 0.071426
0.072202 0.072202 0.072202
0.072986 0.072986 0.072986
0.073778 0.073778 0.073778
0.074577 0.074577 0.074577
0.075383 0.075383 0.075383
0.076197 0.076197 0.076197
0.077018 0.077018 0.077018
0.077847 0.077847 0.077847
0.078684 0.078684 0.078684
0.079529 0.079529 0.079529
0.080382 0.080382 0.080382
0.081243 0.081243 0.081243
0.082111 0.082111 0.082111
0.082988 0.082988 0.082988
0.083873 0.083873 0.083873
0.084767 0.084767 0.084767
0.085668 0.085668 0.085668
0.086579 0.086579 0.086579
0.087497 0.087497 0.087497
0.088425 0.088425 0.088425
0.089361 0.089361 0.089361
0.090305 0.090305 0.090305
0.091259 0.091259 0.091259
0.092222 0.092222 0.092222
0.093193 0.093193 0.093193
0.094174 0.094174 0.094174
0.095164 0.095164 0.095164
0.096163 0.096163 0.096163
0.097172 0.097172 0.097172
0.098190 0.098190 0.098190
0.099217 0.099217 0.099217
0.100254 0.100254 0.100254
0.101301 0.101301 0.101301
0.102358 0.102358 0.102358
0.103424 0.103424 0.103424
0.104501 0.104501 0.104501
0.105588 0.105588 0.105588
0.106684 0.106684 0.106684
0.107792 0.107792 0.107792
0.108909 0.108909 0.108909
0.110037 0.110037 0.110037
0.111176 0.111176 0.111176
0.112325 0.112325 0.112325
0.113485 0.113485 0.113485
0.114656 0.114656 0.114656
0.115837 0.115837 0.115837
0.117030 0.117030 0.117030
0.118234 0.118234 0.118234
0.119450 0.119450 0.119450
0.120676 0.120676 0.120676
0.121914 0.121914 0.121914
0.123164 0.123164 0.123164
0.124426 0.124426 0.124426
0.125699 0.125699 0.125699
0.126984 0.126984 0.126984
0.128282 0.128282 0.128282
0.129591 0.129591 0.129591
0.130913 0.130913 0.130913
0.132247 0.132247 0.132247
0.133594 0.133594 0.133594
0.134953 0.134953 0.134953
0.136325 0.136325 0.136325
0.137710 0.137710 0.137710
0.139107 0.139107 0.139107
0.140518 0.140518 0.140518
0.141942 0.141942 0.141942
0.143380 0.143380 0.143380
0.144831 0.144831 0.144831
0.146295 0.146295 0.146295
0.147773 0.147773 0.147773
0.149266 0.149266 0.149266
0.150772 0.150772 0.150772
0.152292 0.152292 0.152292
0.153826 0.153826 0.153826
0.155375 0.155375 0.155375
0.156938 0.156938 0.156938
0.158516 0.158516 0.158516
0.160109 0.160109 0.160109
0.161717 0.161717 0.161717
0.163339 0.163339 0.163339
0.164977 0.164977 0.164977
0.166630 0.166630 0.166630
0.168299 0.168299 0.168299
0.169984 0.169984 0.169984
0.171684 0.171684 0.171684
0.173400 0.173400 0.173400
0.175132 0.175132 0.175132
0.176880 0.176880 0.176880
0.178645 0.178645 0.178645
0.180427 0.180427 0.180427
0.182225 0.182225 0.182225
0.184039 0.184039 0.184039
0.185871 0.185871 0.185871
0.187720 0.187720 0.187720
0.189587 0.189587 0.189587
0.191471 0.191471 0.191471
0.193372 0.193372 0.193372
0.195291 0.195291 0.195291
0.197229 0.197229 0.197229
0.199184 0.199184 0.199184
0.201158 0.201158 0.201158
0.203150 0.203150 0.203150
0.205161 0.205161 0.205161
0.207191 0.207191 0.207191
0.209239 0.209239 0.209239
0.211307 0.211307 0.211307
0.213395 0.213395 0.213395
0.215502 0.215502 0.215502
0.217628 0.217628 0.217628
0.219775 0.219775 0.219775
0.221942 0.221942 0.221942
0.224128 0.224128 0.224128
0.226336 0.226336 0.226336
0.228564 0.228564 0.228564
0.230813 0.230813 0.230813
0.233083 0.233083 0.233083
0.235375 0.235375 0.235375
0.237687 0.237687 0.237687
0.240022 0.240022 0.240022
0.242378 0.242378 0.242378
0.244757 0.244757 0.244757
0.247157 0.247157 0.247157
0.249581 0.249581 0.249581
0.252027 0.252027 0.252027
0.254495 0.254495 0.254495
0.256987 0.256987 0.256987
0.259503 0.259503 0.259503
0.262042 0.262042 0.262042
0.264604 0.264604 0.264604
0.267191 0.267191 0.267191
0.269802 0.269802 0.269802
0.272437 0.272437 0.272437
0.275097 0.275097 0.275097
0.277782 0.277782 0.277782
0.280492 0.280492 0.280492
0.283228 0.283228 0.283228
0.285989 0.285989 0.285989
0.288776 0.288776 0.288776
0.291589 0.291589 0.291589
0.294429 0.294429 0.294429
0.297295 0.297295 0.297295
0.300188 0.300188 0.300188
0.303108 0.303108 0.303108
0.306055 0.306055 0.306055
0.309031 0.309031 0.309031
0.312033 0.312033 0.312033
0.315064 0.315064 0.315064
0.318124 0.318124 0.318124
0.321212 0.321212 0.321212
0.324329 0.324329 0.324329
0.327475 0.327475 0.327475
0.330651 0.330651 0.330651
0.333857 0.333857 0.333857
0.337092 0.337092 0.337092
0.340358 0.340358 0.340358
0.343654 0.343654 0.343654
0.346982 0.346982 0.346982
0.350340 0.350340 0.350340
0.353730 0.353730 0.353730
0.357152 0.357152 0.357152
0.360606 0.360606 0.360606
0.364092 0.364092 0.364092
0.367611 0.367611 0.367611
0.371162 0.371162 0.371162
0.374747 0.374747 0.374747
0.378366 0.378366 0.378366
0.382019 0.382019 0.382019
0.385705 0.385705 0.385705
0.389427 0.389427 0.389427
0.393183 0.393183 0.393183
0.396974 0.396974 0.396974
0.400801 0.400801 0.400801
0.404664 0.404664 0.404664
0.408563 0.408563 0.408563
0.412498 0.412498 0.412498
0.416470 0.416470 0.416470
0.420480 0.420480 0.420480
0.424527 0.424527 0.424527
0.428612 0.428612 0.428612
0.432735 0.432735 0.432735
0.436897 0.436897 0.436897
0.441098 0.441098 0.441098
0.445338 0.445338 0.445338
0.449619 0.449619 0.449619
0.453939 0.453939 0.453939
0.458299 0.458299 0.458299
0.462701 0.462701 0.462701
0.467143 0.467143 0.467143
0.471628 0.471628 0.471628
0.476154 0.476154 0.476154
0.480723 0.480723 0.480723
0.485334 0.485334 0.485334
0.489989 0.489989 0.489989
0.494687 0.494687 0.494687
0.499430 0.499430 0.499430
0.504216 0.504216 0.504216
0.509048 0.509048 0.509048
0.513925 0.513925 0.513925
0.518848 0.518848 0.518848
0.523816 0.523816 0.523816
0.528832 0.528832 0.528832
0.533894 0.533894 0.533894
0.539004 0.539004 0.539004
0.544161 0.544161 0.544161
0.549367 0.549367 0.549367
0.554622 0.554622 0.554622
0.559926 0.559926 0.559926
0.565279 0.565279 0.565279
0.570683 0.570683 0.570683
0.576137 0.576137 0.576137
0.581643 0.581643 0.581643
0.587200 0.587200 0.587200
0.592809 0.592809 0.592809
0.598471 0.598471 0.598471
0.604185 0.604185 0.604185
0.609954 0.609954 0.609954
0.615776 0.615776 0.615776
0.621653 0.621653 0.621653
0.627585 0.627585 0.627585
0.633572 0.633572 0.633572
0.639616 0.639616 0.639616
0.645716 0.645716 0.645716
0.651873 0.651873 0.651873
0.658089 0.658089 0.658089
0.664362 0.664362 0.664362
0.670694 0.670694 0.670694
0.677085 0.677085 0.677085
0.683537 0.683537 0.683537
0.690048 0.690048 0.690048
0.696621 0.696621 0.696621
0.703255 0.703255 0.703255
0.709952 0.709952 0.709952
0.716711 0.716711 0.716711
0.723534 0.723534 0.723534
0.730420 0.730420 0.730420
0.737371 0.737371 0.737371
0.744387 0.744387 0.744387
0.751469 0.751469 0.751469
0.758617 0.758617 0.758617
0.765832 0.765832 0.765832
0.773115 0.773115 0.773115
0.780466 0.780466 0.780466
0.787886 0.787886 0.787886
0.795375 0.795375 0.795375
0.802935 0.802935 0.802935
0.810565 0.810565 0.810565
0.818267 0.818267 0.818267
0.826041 0.826041 0.826041
0.833888 0.833888 0.833888
0.841808 0.841808 0.841808
0.849803 0.849803 0.849803
0.857872 0.857872 0.857872
0.866018 0.866018 0.866018
0.874239 0.874239 0.874239
0.882537 0.882537 0.882537
0.890914 0.890914 0.890914
0.899368 0.899368 0.899368
0.907902 0.907902 0.907902
0.916516 0.916516 0.916516
0.925211 0.925211 0.925211
0.933987 0.933987 0.933987
0.942845 0.942845 0.942845
0.951786 0.951786 0.951786
0.960811 0.960811 0.960811
0.969921 0.969921 0.969921
0.979115 0.979115 0.979115
0.988396 0.988396 0.988396
0.997764 0.997764 0.997764
1.007220 1.007220 1.007220
1.016765 1.016765 1.016765
1.026398 1.026398 1.026398
1.036122 1.036122 1.036122
1.045938 1.045938 1.045938
1.055845 1.055845 1.055845
1.065845 1.065845 1.065845
1.075938 1.075938 1.075938
1.086126 1.086126 1.086126
1.096410 1.096410 1.096410
1.106790 1.106790 1.106790
1.117267 1.117267 1.117267
1.127843 1.127843 1.127843
1.138517 1.138517 1.138517
1.149292 1.149292 1.149292
1.160167 1.160167 1.160167
1.171145 1.171145 1.171145
1.182225 1.182225 1.182225
1.193409 1.193409 1.193409
1.204697 1.204697 1.204697
1.216092 1.216092 1.216092
1.227593 1.227593 1.227593
1.239202 1.239202 1.239202
1.250920 1.250920 1.250920
1.262748 1.262748 1.262748
1.274686 1.274686 1.274686
1.286737 1.286737 1.286737
1.298900 1.298900 1.298900
1.311177 1.311177 1.311177
1.323569 1.323569 1.323569
1.336077 1.336077 1.336077
1.348703 1.348703 1.348703
1.361447 1.361447 1.361447
1.374310 1.374310 1.374310
1.387293 1.387293 1.387293
1.400399 1.400399 1.400399
1.413627 1.413627 1.413627
1.426979 1.426979 1.426979
1.440456 1.440456 1.440456
1.454059 1.454059 1.454059
1.467790 1.467790 1.467790
1.481650 1.481650 1.481650
1.495639 1.495639 1.495639
1.509760 1.509760 1.509760
1.524012 1.524012 1.524012
1.538399 1.538399 1.538399
1.552920 1.552920 1.552920
1.567577 1.567577 1.567577
1.582371 1.582371 1.582371
1.597304 1.597304 1.597304
1.612377 1.612377 1.612377
1.627591 1.627591 1.627591
1.642948 1.642948 1.642948
1.658449 1.658449 1.658449
1.674094 1.674094 1.674094
1.689887 1.689887 1.689887
1.705827 1.705827 1.705827
1.721917 1.721917 1.721917
1.738157 1.738157 1.738157
1.754550 1.754550 1.754550
1.771096 1.771096 1.771096
1.787797 1.787797 1.787797
1.804655 1.804655 1.804655
1.821671 1.821671 1.821671
1.838846 1.838846 1.838846
1.856182 1.856182 1.856182
1.873680 1.873680 1.873680
1.891343 1.891343 1.891343
1.909170 1.909170 1.909170
1.927165 1.927165 1.927165
1.945329 1.945329 1.945329
1.963662 1.963662 1.963662
1.982168 1.982168 1.982168
2.000847 2.000847 2.000847
2.019700 2.019700 2.019700
2.038731 2.038731 2.038731
2.057940 2.057940 2.057940
2.077328 2.077328 2.077328
2.096899 2.096899 2.096899
2.116652 2.116652 2.116652
2.136591 2.136591 2.136591
2.156717 2.156717 2.156717
2.177031 2.177031 2.177031
2.197535 2.197535 2.197535
2.218232 2.218232 2.218232
2.239122 2.239122 2.239122
2.260209 2.260209 2.260209
2.281492 2.281492 2.281492
2.302976 2.302976 2.302976
2.324660 2.324660 2.324660
2.346548 2.346548 2.346548
2.368641 2.368641 2.368641
2.390940 2.390940 2.390940
2.413449 2.413449 2.413449
2.436168 2.436168 2.436168
2.459101 2.459101 2.459101
2.482248 2.482248 2.482248
2.505612 2.505612 2.505612
2.529195 2.529195 2.529195
2.552999 2.552999 2.552999
2.577026 2.577026 2.577026
2.601278 2.601278 2.601278
2.625757 2.625757 2.625757
2.650466 2.650466 2.650466
2.675406 2.675406 2.675406
2.700580 2.700580 2.700580
2.725990 2.725990 2.725990
2.751638 2.751638 2.751638
2.777526 2.777526 2.777526
2.803656 2.803656 2.803656
2.830032 2.830032 2.830032
2.856654 2.856654 2.856654
2.883526 2.883526 2.883526
2.910650 2.910650 2.910650
2.938028 2.938028 2.938028
2.965662 2.965662 2.965662
2.993556 2.993556 2.993556
3.021710 3.021710 3.021710
3.050129 3.050129 3.050129
3.078813 3.078813 3.078813
3.107767 3.107767 3.107767
3.136991 3.136991 3.136991
3.166490 3.166490 3.166490
3.196265 3.196265 3.196265
3.226319 3.226319 3.226319
3.256654 3.256654 3.256654
3.287274 3.287274 3.287274
3.318180 3.318180 3.318180
3.349376 3.349376 3.349376
3.380865 3.380865 3.380865
3.412648 3.412648 3.412648
3.444729 3.444729 3.444729
3.477111 3.477111 3.477111
3.509796 3.509796 3.509796
3.542787 3.542787 3.542787
3.576088 3.576088 3.576088
3.609700 3.609700 3.609700
3.643628 3.643628 3.643628
3.677873 3.677873 3.677873
3.712439 3.712439 3.712439
3.747329 3.747329 3.747329
3.782546 3.782546 3.782546
3.818092 3.818092 3.818092
3.853972 3.853972 3.853972
3.890188 3.890188 3.890188
3.926744 3.926744 3.926744
3.963641 3.963641 3.963641
4.000885 4.000885 4.000885
4.038477 4.038477 4.038477
4.076422 4.076422 4.076422
4.114722 4.114722 4.114722
4.153381 4.153381 4.153381
4.192402 4.192402 4.192402
4.231789 4.231789 4.231789
4.271545 4.271545 4.271545
4.311673 4.311673 4.311673
4.352177 4.352177 4.352177
4.393061 4.393061 4.393061
4.434328 4.434328 4.434328
4.475981 4.475981 4.475981
4.518025 4.518025 4.518025
4.560463 4.560463 4.560463
4.603298 4.603298 4.603298
4.646534 4.646534 4.646534
4.690176 4.690176 4.690176
4.734227 4.734227 4.734227
4.778690 4.778690 4.778690
4.823570 4.823570 4.823570
4.868870 4.868870 4.868870
4.914595 4.914595 4.914595
4.960748 4.960748 4.960748
5.007333 5.007333 5.007333
5.054355 5.054355 5.054355
5.101818 5.101818 5.101818
5.149725 5.149725 5.149725
5.198081 5.198081 5.198081
5.246890 5.246890 5.246890
5.296157 5.296157 5.296157
5.345885 5.345885 5.345885
5.396079 5.396079 5.396079
5.446743 5.446743 5.446743
5.497882 5.497882 5.497882
5.549500 5.549500 5.549500
5.601601 5.601601 5.601601
5.654191 5.654191 5.654191
5.707274 5.707274 5.707274
5.760854 5.760854 5.760854
5.814935 5.814935 5.814935
5.869524 5.869524 5.869524
5.924624 5.924624 5.924624
5.980240 5.980240 5.980240
6.036378 6.036378 6.036378
6.093041 6.093041 6.093041
6.150235 6.150235 6.150235
6.207965 6.207965 6.207965
6.266236 6.266236 6.266236
6.325053 6.325053 6.325053
6.384421 6.384421 6.384421
6.444345 6.444345 6.444345
6.504830 6.504830 6.504830
6.565883 6.565883 6.565883
6.627507 6.627507 6.627507
6.689708 6.689708 6.689708
6.752493 6.752493 6.752493
6.815866 6.815866 6.815866
6.879832 6.879832 6.879832
6.944398 6.944398 6.944398
7.009568 7.009568 7.009568
7.075350 7.075350 7.075350
7.141747 7.141747 7.141747
7.208767 7.208767 7.208767
7.276414 7.276414 7.276414
7.344696 7.344696 7.344696
7.413617 7.413617 7.413617
7.483184 7.483184 7.483184
7.553402 7.553402 7.553402
7.624279 7.624279 7.624279
7.695819 7.695819 7.695819
7.768030 7.768030 7.768030
7.840917 7.840917 7.840917
7.914488 7.914488 7.914488
7.988747 7.988747 7.988747
8.063702 8.063702 8.063702
8.139360 8.139360 8.139360
8.215726 8.215726 8.215726
8.292808 8.292808 8.292808
8.370612 8.370612 8.370612
8.449145 8.449145 8.449145
8.528414 8.528414 8.528414
8.608426 8.608426 8.608426
8.689187 8.689187 8.689187
8.770705 8.770705 8.770705
8.852986 8.852986 8.852986
8.936039 8.936039 8.936039
9.019869 9.019869 9.019869
9.104485 9.104485 9.104485
9.189894 9.189894 9.189894
9.276103 9.276103 9.276103
9.363120 9.363120 9.363120
9.450952 9.450952 9.450952
9.539607 9.539607 9.539607
9.629092 9.629092 9.629092
9.719416 9.719416 9.719416
9.810587 9.810587 9.810587
9.902611 9.902611 9.902611
9.995498 9.995498 9.995498
10.089254 10.089254 10.089254
10.183890 10.183890 10.183890
10.279412 10.279412 10.279412
10.375828 10.375828 10.375828
10.473149 10.473149 10.473149
10.571381 10.571381 10.571381
10.670533 10.670533 10.670533
10.770614 10.770614 10.770614
10.871633 10.871633 10.871633
10.973599 10.973599 10.973599
11.076520 11.076520 11.076520
11.180405 11.180405 11.180405
11.285263 11.285263 11.285263
11.391104 11.391104 11.391104
11.497936 11.497936 11.497936
11.605770 11.605770 11.605770
11.714614 11.714614 11.714614
11.824477 11.824477 11.824477
11.935370 11.935370 11.935370
12.047302 12.047302 12.047302
12.160282 12.160282 12.160282
12.274321 12.274321 12.274321
12.389429 12.389429 12.389429
12.505614 12.505614 12.505614
12.622889 12.622889 12.622889
12.741262 12.741262 12.741262
12.860744 12.860744 12.860744
12.981346 12.981346 12.981346
13.103078 13.103078 13.103078
13.225950 13.225950 13.225950
13.349974 13.349974 13.349974
13.475159 13.475159 13.475159
13.601517 13.601517 13.601517
13.729059 13.729059 13.729059
13.857796 13.857796 13.857796
13.987740 13.987740 13.987740
14.118900 14.118900 14.118900
14.251290 14.251290 14.251290
14.384920 14.384920 14.384920
14.519802 14.519802 14.519802
14.655948 14.655948 14.655948
14.793369 14.793369 14.793369
14.932078 14.932078 14.932078
15.072086 15.072086 15.072086
15.213406 15.213406 15.213406
