matplotlib/gamma_curve/data/cl3.cube
# Gamma : Canon Log 3 to Linear
# Range : Full in / Linear out
# Version : 2.0 2016/10/27
# Copyright(c) 2016 Canon Inc. All Rights Reserved.

LUT_1D_SIZE 1024
-0.082015 -0.082015 -0.082015
-0.081106 -0.081106 -0.081106
-0.080203 -0.080203 -0.080203
-0.079305 -0.079305 -0.079305
-0.078413 -0.078413 -0.078413
-0.077526 -0.077526 -0.077526
-0.076644 -0.076644 -0.076644
-0.075768 -0.075768 -0.075768
-0.074897 -0.074897 -0.074897
-0.074032 -0.074032 -0.074032
-0.073172 -0.073172 -0.073172
-0.072317 -0.072317 -0.072317
-0.071468 -0.071468 -0.071468
-0.070623 -0.070623 -0.070623
-0.069784 -0.069784 -0.069784
-0.068950 -0.068950 -0.068950
-0.068121 -0.068121 -0.068121
-0.067297 -0.067297 -0.067297
-0.066478 -0.066478 -0.066478
-0.065664 -0.065664 -0.065664
-0.064855 -0.064855 -0.064855
-0.064051 -0.064051 -0.064051
-0.063252 -0.063252 -0.063252
-0.062457 -0.062457 -0.062457
-0.061668 -0.061668 -0.061668
-0.060884 -0.060884 -0.060884
-0.060104 -0.060104 -0.060104
-0.059329 -0.059329 -0.059329
-0.058559 -0.058559 -0.058559
-0.057793 -0.057793 -0.057793
-0.057032 -0.057032 -0.057032
-0.056276 -0.056276 -0.056276
-0.055524 -0.055524 -0.055524
-0.054777 -0.054777 -0.054777
-0.054035 -0.054035 -0.054035
-0.053297 -0.053297 -0.053297
-0.052563 -0.052563 -0.052563
-0.051835 -0.051835 -0.051835
-0.051110 -0.051110 -0.051110
-0.050390 -0.050390 -0.050390
-0.049674 -0.049674 -0.049674
-0.048963 -0.048963 -0.048963
-0.048256 -0.048256 -0.048256
-0.047554 -0.047554 -0.047554
-0.046855 -0.046855 -0.046855
-0.046161 -0.046161 -0.046161
-0.045471 -0.045471 -0.045471
-0.044786 -0.044786 -0.044786
-0.044104 -0.044104 -0.044104
-0.043427 -0.043427 -0.043427
-0.042754 -0.042754 -0.042754
-0.042085 -0.042085 -0.042085
-0.041420 -0.041420 -0.041420
-0.040759 -0.040759 -0.040759
-0.040102 -0.040102 -0.040102
-0.039450 -0.039450 -0.039450
-0.038801 -0.038801 -0.038801
-0.038156 -0.038156 -0.038156
-0.037515 -0.037515 -0.037515
-0.036878 -0.036878 -0.036878
-0.036245 -0.036245 -0.036245
-0.035616 -0.035616 -0.035616
-0.034990 -0.034990 -0.034990
-0.034369 -0.034369 -0.034369
-0.033751 -0.033751 -0.033751
-0.033137 -0.033137 -0.033137
-0.032527 -0.032527 -0.032527
-0.031920 -0.031920 -0.031920
-0.031318 -0.031318 -0.031318
-0.030718 -0.030718 -0.030718
-0.030123 -0.030123 -0.030123
-0.029531 -0.029531 -0.029531
-0.028943 -0.028943 -0.028943
-0.028358 -0.028358 -0.028358
-0.027777 -0.027777 -0.027777
-0.027200 -0.027200 -0.027200
-0.026626 -0.026626 -0.026626
-0.026055 -0.026055 -0.026055
-0.025488 -0.025488 -0.025488
-0.024925 -0.024925 -0.024925
-0.024365 -0.024365 -0.024365
-0.023808 -0.023808 -0.023808
-0.023255 -0.023255 -0.023255
-0.022705 -0.022705 -0.022705
-0.022159 -0.022159 -0.022159
-0.021616 -0.021616 -0.021616
-0.021076 -0.021076 -0.021076
-0.020539 -0.020539 -0.020539
-0.020006 -0.020006 -0.020006
-0.019476 -0.019476 -0.019476
-0.018949 -0.018949 -0.018949
-0.018426 -0.018426 -0.018426
-0.017905 -0.017905 -0.017905
-0.017388 -0.017388 -0.017388
-0.016874 -0.016874 -0.016874
-0.016363 -0.016363 -0.016363
-0.015855 -0.015855 -0.015855
-0.015351 -0.015351 -0.015351
-0.014849 -0.014849 -0.014849
-0.014351 -0.014351 -0.014351
-0.013855 -0.013855 -0.013855
-0.013360 -0.013360 -0.013360
-0.012865 -0.012865 -0.012865
-0.012371 -0.012371 -0.012371
-0.011876 -0.011876 -0.011876
-0.011381 -0.011381 -0.011381
-0.010886 -0.010886 -0.010886
-0.010391 -0.010391 -0.010391
-0.009897 -0.009897 -0.009897
-0.009402 -0.009402 -0.009402
-0.008907 -0.008907 -0.008907
-0.008412 -0.008412 -0.008412
-0.007917 -0.007917 -0.007917
-0.007422 -0.007422 -0.007422
-0.006928 -0.006928 -0.006928
-0.006433 -0.006433 -0.006433
-0.005938 -0.005938 -0.005938
-0.005443 -0.005443 -0.005443
-0.004948 -0.004948 -0.004948
-0.004453 -0.004453 -0.004453
-0.003959 -0.003959 -0.003959
-0.003464 -0.003464 -0.003464
-0.002969 -0.002969 -0.002969
-0.002474 -0.002474 -0.002474
-0.001979 -0.001979 -0.001979
-0.001484 -0.001484 -0.001484
-0.000990 -0.000990 -0.000990
-0.000495 -0.000495 -0.000495
-0.000000 -0.000000 -0.000000
0.000495 0.000495 0.000495
0.000990 0.000990 0.000990
0.001484 0.001484 0.001484
0.001979 0.001979 0.001979
0.002474 0.002474 0.002474
0.002969 0.002969 0.002969
0.003464 0.003464 0.003464
0.003959 0.003959 0.003959
0.004453 0.004453 0.004453
0.004948 0.004948 0.004948
0.005443 0.005443 0.005443
0.005938 0.005938 0.005938
0.006433 0.006433 0.006433
0.006928 0.006928 0.006928
0.007422 0.007422 0.007422
0.007917 0.007917 0.007917
0.008412 0.008412 0.008412
0.008907 0.008907 0.008907
0.009402 0.009402 0.009402
0.009897 0.009897 0.009897
0.010391 0.010391 0.010391
0.010886 0.010886 0.010886
0.011381 0.011381 0.011381
0.011876 0.011876 0.011876
0.012371 0.012371 0.012371
0.012865 0.012865 0.012865
0.013360 0.013360 0.013360
0.013855 0.013855 0.013855
0.014351 0.014351 0.014351
0.014849 0.014849 0.014849
0.015351 0.015351 0.015351
0.015855 0.015855 0.015855
0.016363 0.016363 0.016363
0.016874 0.016874 0.016874
0.017388 0.017388 0.017388
0.017905 0.017905 0.017905
0.018426 0.018426 0.018426
0.018949 0.018949 0.018949
0.019476 0.019476 0.019476
0.020006 0.020006 0.020006
0.020539 0.020539 0.020539
0.021076 0.021076 0.021076
0.021616 0.021616 0.021616
0.022159 0.022159 0.022159
0.022705 0.022705 0.022705
0.023255 0.023255 0.023255
0.023808 0.023808 0.023808
0.024365 0.024365 0.024365
0.024925 0.024925 0.024925
0.025488 0.025488 0.025488
0.026055 0.026055 0.026055
0.026626 0.026626 0.026626
0.027200 0.027200 0.027200
0.027777 0.027777 0.027777
0.028358 0.028358 0.028358
0.028943 0.028943 0.028943
0.029531 0.029531 0.029531
0.030123 0.030123 0.030123
0.030718 0.030718 0.030718
0.031318 0.031318 0.031318
0.031920 0.031920 0.031920
0.032527 0.032527 0.032527
0.033137 0.033137 0.033137
0.033751 0.033751 0.033751
0.034369 0.034369 0.034369
0.034990 0.034990 0.034990
0.035616 0.035616 0.035616
0.036245 0.036245 0.036245
0.036878 0.036878 0.036878
0.037515 0.037515 0.037515
0.038156 0.038156 0.038156
0.038801 0.038801 0.038801
0.039450 0.039450 0.039450
0.040102 0.040102 0.040102
0.040759 0.040759 0.040759
0.041420 0.041420 0.041420
0.042085 0.042085 0.042085
0.042754 0.042754 0.042754
0.043427 0.043427 0.043427
0.044104 0.044104 0.044104
0.044786 0.044786 0.044786
0.045471 0.045471 0.045471
0.046161 0.046161 0.046161
0.046855 0.046855 0.046855
0.047554 0.047554 0.047554
0.048256 0.048256 0.048256
0.048963 0.048963 0.048963
0.049674 0.049674 0.049674
0.050390 0.050390 0.050390
0.051110 0.051110 0.051110
0.051835 0.051835 0.051835
0.052563 0.052563 0.052563
0.053297 0.053297 0.053297
0.054035 0.054035 0.054035
0.054777 0.054777 0.054777
0.055524 0.055524 0.055524
0.056276 0.056276 0.056276
0.057032 0.057032 0.057032
0.057793 0.057793 0.057793
0.058559 0.058559 0.058559
0.059329 0.059329 0.059329
0.060104 0.060104 0.060104
0.060884 0.060884 0.060884
0.061668 0.061668 0.061668
0.062457 0.062457 0.062457
0.063252 0.063252 0.063252
0.064051 0.064051 0.064051
0.064855 0.064855 0.064855
0.065664 0.065664 0.065664
0.066478 0.066478 0.066478
0.067297 0.067297 0.067297
0.068121 0.068121 0.068121
0.068950 0.068950 0.068950
0.069784 0.069784 0.069784
0.070623 0.070623 0.070623
0.071468 0.071468 0.071468
0.072317 0.072317 0.072317
0.073172 0.073172 0.073172
0.074032 0.074032 0.074032
0.074897 0.074897 0.074897
0.075768 0.075768 0.075768
0.076644 0.076644 0.076644
0.077526 0.077526 0.077526
0.078413 0.078413 0.078413
0.079305 0.079305 0.079305
0.080203 0.080203 0.080203
0.081106 0.081106 0.081106
0.082015 0.082015 0.082015
0.082929 0.082929 0.082929
0.083849 0.083849 0.083849
0.084775 0.084775 0.084775
0.085707 0.085707 0.085707
0.086644 0.086644 0.086644
0.087587 0.087587 0.087587
0.088535 0.088535 0.088535
0.089490 0.089490 0.089490
0.090450 0.090450 0.090450
0.091417 0.091417 0.091417
0.092389 0.092389 0.092389
0.093367 0.093367 0.093367
0.094351 0.094351 0.094351
0.095342 0.095342 0.095342
0.096338 0.096338 0.096338
0.097340 0.097340 0.097340
0.098349 0.098349 0.098349
0.099364 0.099364 0.099364
0.100385 0.100385 0.100385
0.101412 0.101412 0.101412
0.102446 0.102446 0.102446
0.103486 0.103486 0.103486
0.104533 0.104533 0.104533
0.105586 0.105586 0.105586
0.106645 0.106645 0.106645
0.107711 0.107711 0.107711
0.108783 0.108783 0.108783
0.109862 0.109862 0.109862
0.110948 0.110948 0.110948
0.112040 0.112040 0.112040
0.113139 0.113139 0.113139
0.114245 0.114245 0.114245
0.115358 0.115358 0.115358
0.116477 0.116477 0.116477
0.117603 0.117603 0.117603
0.118736 0.118736 0.118736
0.119877 0.119877 0.119877
0.121024 0.121024 0.121024
0.122178 0.122178 0.122178
0.123340 0.123340 0.123340
0.124508 0.124508 0.124508
0.125684 0.125684 0.125684
0.126867 0.126867 0.126867
0.128057 0.128057 0.128057
0.129254 0.129254 0.129254
0.130459 0.130459 0.130459
0.131671 0.131671 0.131671
0.132891 0.132891 0.132891
0.134118 0.134118 0.134118
0.135353 0.135353 0.135353
0.136595 0.136595 0.136595
0.137845 0.137845 0.137845
0.139103 0.139103 0.139103
0.140368 0.140368 0.140368
0.141642 0.141642 0.141642
0.142923 0.142923 0.142923
0.144211 0.144211 0.144211
0.145508 0.145508 0.145508
0.146813 0.146813 0.146813
0.148126 0.148126 0.148126
0.149447 0.149447 0.149447
0.150776 0.150776 0.150776
0.152113 0.152113 0.152113
0.153458 0.153458 0.153458
0.154812 0.154812 0.154812
0.156174 0.156174 0.156174
0.157544 0.157544 0.157544
0.158923 0.158923 0.158923
0.160310 0.160310 0.160310
0.161706 0.161706 0.161706
0.163110 0.163110 0.163110
0.164523 0.164523 0.164523
0.165945 0.165945 0.165945
0.167375 0.167375 0.167375
0.168814 0.168814 0.168814
0.170263 0.170263 0.170263
0.171719 0.171719 0.171719
0.173185 0.173185 0.173185
0.174660 0.174660 0.174660
0.176144 0.176144 0.176144
0.177637 0.177637 0.177637
0.179140 0.179140 0.179140
0.180651 0.180651 0.180651
0.182172 0.182172 0.182172
0.183702 0.183702 0.183702
0.185242 0.185242 0.185242
0.186791 0.186791 0.186791
0.188349 0.188349 0.188349
0.189917 0.189917 0.189917
0.191495 0.191495 0.191495
0.193083 0.193083 0.193083
0.194680 0.194680 0.194680
0.196287 0.196287 0.196287
0.197904 0.197904 0.197904
0.199531 0.199531 0.199531
0.201168 0.201168 0.201168
0.202815 0.202815 0.202815
0.204472 0.204472 0.204472
0.206139 0.206139 0.206139
0.207816 0.207816 0.207816
0.209504 0.209504 0.209504
0.211202 0.211202 0.211202
0.212911 0.212911 0.212911
0.214630 0.214630 0.214630
0.216360 0.216360 0.216360
0.218100 0.218100 0.218100
0.219851 0.219851 0.219851
0.221613 0.221613 0.221613
0.223385 0.223385 0.223385
0.225169 0.225169 0.225169
0.226963 0.226963 0.226963
0.228769 0.228769 0.228769
0.230586 0.230586 0.230586
0.232413 0.232413 0.232413
0.234252 0.234252 0.234252
0.236103 0.236103 0.236103
0.237964 0.237964 0.237964
0.239837 0.239837 0.239837
0.241722 0.241722 0.241722
0.243618 0.243618 0.243618
0.245526 0.245526 0.245526
0.247446 0.247446 0.247446
0.249377 0.249377 0.249377
0.251321 0.251321 0.251321
0.253276 0.253276 0.253276
0.255243 0.255243 0.255243
0.257222 0.257222 0.257222
0.259214 0.259214 0.259214
0.261218 0.261218 0.261218
0.263234 0.263234 0.263234
0.265262 0.265262 0.265262
0.267303 0.267303 0.267303
0.269357 0.269357 0.269357
0.271423 0.271423 0.271423
0.273502 0.273502 0.273502
0.275593 0.275593 0.275593
0.277698 0.277698 0.277698
0.279815 0.279815 0.279815
0.281945 0.281945 0.281945
0.284089 0.284089 0.284089
0.286246 0.286246 0.286246
0.288415 0.288415 0.288415
0.290599 0.290599 0.290599
0.292795 0.292795 0.292795
0.295006 0.295006 0.295006
0.297229 0.297229 0.297229
0.299467 0.299467 0.299467
0.301718 0.301718 0.301718
0.303983 0.303983 0.303983
0.306262 0.306262 0.306262
0.308555 0.308555 0.308555
0.310862 0.310862 0.310862
0.313183 0.313183 0.313183
0.315519 0.315519 0.315519
0.317869 0.317869 0.317869
0.320233 0.320233 0.320233
0.322612 0.322612 0.322612
0.325006 0.325006 0.325006
0.327414 0.327414 0.327414
0.329837 0.329837 0.329837
0.332275 0.332275 0.332275
0.334728 0.334728 0.334728
0.337195 0.337195 0.337195
0.339679 0.339679 0.339679
0.342177 0.342177 0.342177
0.344691 0.344691 0.344691
0.347220 0.347220 0.347220
0.349765 0.349765 0.349765
0.352325 0.352325 0.352325
0.354901 0.354901 0.354901
0.357493 0.357493 0.357493
0.360101 0.360101 0.360101
0.362725 0.362725 0.362725
0.365365 0.365365 0.365365
0.368022 0.368022 0.368022
0.370694 0.370694 0.370694
0.373383 0.373383 0.373383
0.376089 0.376089 0.376089
0.378811 0.378811 0.378811
0.381550 0.381550 0.381550
0.384306 0.384306 0.384306
0.387079 0.387079 0.387079
0.389868 0.389868 0.389868
0.392675 0.392675 0.392675
0.395500 0.395500 0.395500
0.398341 0.398341 0.398341
0.401200 0.401200 0.401200
0.404077 0.404077 0.404077
0.406971 0.406971 0.406971
0.409883 0.409883 0.409883
0.412813 0.412813 0.412813
0.415761 0.415761 0.415761
0.418727 0.418727 0.418727
0.421711 0.421711 0.421711
0.424714 0.424714 0.424714
0.427735 0.427735 0.427735
0.430775 0.430775 0.430775
0.433833 0.433833 0.433833
0.436911 0.436911 0.436911
0.440007 0.440007 0.440007
0.443122 0.443122 0.443122
0.446256 0.446256 0.446256
0.449410 0.449410 0.449410
0.452583 0.452583 0.452583
0.455775 0.455775 0.455775
0.458987 0.458987 0.458987
0.462219 0.462219 0.462219
0.465471 0.465471 0.465471
0.468743 0.468743 0.468743
0.472034 0.472034 0.472034
0.475346 0.475346 0.475346
0.478679 0.478679 0.478679
0.482032 0.482032 0.482032
0.485405 0.485405 0.485405
0.488799 0.488799 0.488799
0.492215 0.492215 0.492215
0.495651 0.495651 0.495651
0.499108 0.499108 0.499108
0.502586 0.502586 0.502586
0.506086 0.506086 0.506086
0.509608 0.509608 0.509608
0.513151 0.513151 0.513151
0.516715 0.516715 0.516715
0.520302 0.520302 0.520302
0.523911 0.523911 0.523911
0.527542 0.527542 0.527542
0.531195 0.531195 0.531195
0.534871 0.534871 0.534871
0.538569 0.538569 0.538569
0.542290 0.542290 0.542290
0.546034 0.546034 0.546034
0.549801 0.549801 0.549801
0.553591 0.553591 0.553591
0.557405 0.557405 0.557405
0.561241 0.561241 0.561241
0.565102 0.565102 0.565102
0.568986 0.568986 0.568986
0.572894 0.572894 0.572894
0.576826 0.576826 0.576826
0.580782 0.580782 0.580782
0.584763 0.584763 0.584763
0.588768 0.588768 0.588768
0.592798 0.592798 0.592798
0.596852 0.596852 0.596852
0.600931 0.600931 0.600931
0.605036 0.605036 0.605036
0.609165 0.609165 0.609165
0.613320 0.613320 0.613320
0.617501 0.617501 0.617501
0.621707 0.621707 0.621707
0.625939 0.625939 0.625939
0.630198 0.630198 0.630198
0.634482 0.634482 0.634482
0.638792 0.638792 0.638792
0.643130 0.643130 0.643130
0.647493 0.647493 0.647493
0.651884 0.651884 0.651884
0.656302 0.656302 0.656302
0.660747 0.660747 0.660747
0.665219 0.665219 0.665219
0.669718 0.669718 0.669718
0.674246 0.674246 0.674246
0.678801 0.678801 0.678801
0.683384 0.683384 0.683384
0.687995 0.687995 0.687995
0.692635 0.692635 0.692635
0.697303 0.697303 0.697303
0.702000 0.702000 0.702000
0.706725 0.706725 0.706725
0.711480 0.711480 0.711480
0.716264 0.716264 0.716264
0.721078 0.721078 0.721078
0.725921 0.725921 0.725921
0.730793 0.730793 0.730793
0.735696 0.735696 0.735696
0.740629 0.740629 0.740629
0.745592 0.745592 0.745592
0.750586 0.750586 0.750586
0.755610 0.755610 0.755610
0.760666 0.760666 0.760666
0.765752 0.765752 0.765752
0.770869 0.770869 0.770869
0.776019 0.776019 0.776019
0.781199 0.781199 0.781199
0.786412 0.786412 0.786412
0.791657 0.791657 0.791657
0.796933 0.796933 0.796933
0.802243 0.802243 0.802243
0.807585 0.807585 0.807585
0.812959 0.812959 0.812959
0.818367 0.818367 0.818367
0.823808 0.823808 0.823808
0.829283 0.829283 0.829283
0.834791 0.834791 0.834791
0.840333 0.840333 0.840333
0.845909 0.845909 0.845909
0.851520 0.851520 0.851520
0.857164 0.857164 0.857164
0.862844 0.862844 0.862844
0.868558 0.868558 0.868558
0.874308 0.874308 0.874308
0.880093 0.880093 0.880093
0.885914 0.885914 0.885914
0.891770 0.891770 0.891770
0.897662 0.897662 0.897662
0.903591 0.903591 0.903591
0.909556 0.909556 0.909556
0.915557 0.915557 0.915557
0.921596 0.921596 0.921596
0.927671 0.927671 0.927671
0.933784 0.933784 0.933784
0.939935 0.939935 0.939935
0.946123 0.946123 0.946123
0.952350 0.952350 0.952350
0.958615 0.958615 0.958615
0.964918 0.964918 0.964918
0.971260 0.971260 0.971260
0.977641 0.977641 0.977641
0.984061 0.984061 0.984061
0.990521 0.990521 0.990521
0.997020 0.997020 0.997020
1.003559 1.003559 1.003559
1.010139 1.010139 1.010139
1.016759 1.016759 1.016759
1.023419 1.023419 1.023419
1.030121 1.030121 1.030121
1.036864 1.036864 1.036864
1.043648 1.043648 1.043648
1.050474 1.050474 1.050474
1.057342 1.057342 1.057342
1.064252 1.064252 1.064252
1.071205 1.071205 1.071205
1.078200 1.078200 1.078200
1.085238 1.085238 1.085238
1.092320 1.092320 1.092320
1.099445 1.099445 1.099445
1.106614 1.106614 1.106614
1.113827 1.113827 1.113827
1.121084 1.121084 1.121084
1.128386 1.128386 1.128386
1.135733 1.135733 1.135733
1.143125 1.143125 1.143125
1.150563 1.150563 1.150563
1.158046 1.158046 1.158046
1.165575 1.165575 1.165575
1.173151 1.173151 1.173151
1.180773 1.180773 1.180773
1.188442 1.188442 1.188442
1.196158 1.196158 1.196158
1.203921 1.203921 1.203921
1.211732 1.211732 1.211732
1.219592 1.219592 1.219592
1.227499 1.227499 1.227499
1.235455 1.235455 1.235455
1.243460 1.243460 1.243460
1.251515 1.251515 1.251515
1.259618 1.259618 1.259618
1.267772 1.267772 1.267772
1.275976 1.275976 1.275976
1.284230 1.284230 1.284230
1.292535 1.292535 1.292535
1.300891 1.300891 1.300891
1.309298 1.309298 1.309298
1.317757 1.317757 1.317757
1.326268 1.326268 1.326268
1.334831 1.334831 1.334831
1.343447 1.343447 1.343447
1.352116 1.352116 1.352116
1.360838 1.360838 1.360838
1.369614 1.369614 1.369614
1.378444 1.378444 1.378444
1.387328 1.387328 1.387328
1.396267 1.396267 1.396267
1.405260 1.405260 1.405260
1.414309 1.414309 1.414309
1.423414 1.423414 1.423414
1.432574 1.432574 1.432574
1.441791 1.441791 1.441791
1.451065 1.451065 1.451065
1.460395 1.460395 1.460395
1.469783 1.469783 1.469783
1.479228 1.479228 1.479228
1.488732 1.488732 1.488732
1.498294 1.498294 1.498294
1.507915 1.507915 1.507915
1.517595 1.517595 1.517595
1.527334 1.527334 1.527334
1.537134 1.537134 1.537134
1.546993 1.546993 1.546993
1.556913 1.556913 1.556913
1.566895 1.566895 1.566895
1.576937 1.576937 1.576937
1.587041 1.587041 1.587041
1.597208 1.597208 1.597208
1.607437 1.607437 1.607437
1.617728 1.617728 1.617728
1.628083 1.628083 1.628083
1.638502 1.638502 1.638502
1.648985 1.648985 1.648985
1.659532 1.659532 1.659532
1.670144 1.670144 1.670144
1.680821 1.680821 1.680821
1.691564 1.691564 1.691564
1.702373 1.702373 1.702373
1.713248 1.713248 1.713248
1.724191 1.724191 1.724191
1.735200 1.735200 1.735200
1.746277 1.746277 1.746277
1.757423 1.757423 1.757423
1.768636 1.768636 1.768636
1.779919 1.779919 1.779919
1.791271 1.791271 1.791271
1.802693 1.802693 1.802693
1.814185 1.814185 1.814185
1.825748 1.825748 1.825748
1.837381 1.837381 1.837381
1.849087 1.849087 1.849087
1.860864 1.860864 1.860864
1.872714 1.872714 1.872714
1.884636 1.884636 1.884636
1.896632 1.896632 1.896632
1.908702 1.908702 1.908702
1.920845 1.920845 1.920845
1.933064 1.933064 1.933064
1.945357 1.945357 1.945357
1.957726 1.957726 1.957726
1.970171 1.970171 1.970171
1.982693 1.982693 1.982693
1.995292 1.995292 1.995292
2.007968 2.007968 2.007968
2.020722 2.020722 2.020722
2.033554 2.033554 2.033554
2.046465 2.046465 2.046465
2.059456 2.059456 2.059456
2.072526 2.072526 2.072526
2.085677 2.085677 2.085677
2.098909 2.098909 2.098909
2.112222 2.112222 2.112222
2.125617 2.125617 2.125617
2.139094 2.139094 2.139094
2.152654 2.152654 2.152654
2.166297 2.166297 2.166297
2.180025 2.180025 2.180025
2.193836 2.193836 2.193836
2.207733 2.207733 2.207733
2.221715 2.221715 2.221715
2.235783 2.235783 2.235783
2.249937 2.249937 2.249937
2.264179 2.264179 2.264179
2.278507 2.278507 2.278507
2.292925 2.292925 2.292925
2.307430 2.307430 2.307430
2.322025 2.322025 2.322025
2.336710 2.336710 2.336710
2.351485 2.351485 2.351485
2.366350 2.366350 2.366350
2.381307 2.381307 2.381307
2.396356 2.396356 2.396356
2.411498 2.411498 2.411498
2.426732 2.426732 2.426732
2.442061 2.442061 2.442061
2.457483 2.457483 2.457483
2.473000 2.473000 2.473000
2.488613 2.488613 2.488613
2.504322 2.504322 2.504322
2.520127 2.520127 2.520127
2.536029 2.536029 2.536029
2.552030 2.552030 2.552030
2.568128 2.568128 2.568128
2.584325 2.584325 2.584325
2.600623 2.600623 2.600623
2.617020 2.617020 2.617020
2.633518 2.633518 2.633518
2.650117 2.650117 2.650117
2.666819 2.666819 2.666819
2.683623 2.683623 2.683623
2.700530 2.700530 2.700530
2.717542 2.717542 2.717542
2.734658 2.734658 2.734658
2.751879 2.751879 2.751879
2.769206 2.769206 2.769206
2.786639 2.786639 2.786639
2.804180 2.804180 2.804180
2.821829 2.821829 2.821829
2.839586 2.839586 2.839586
2.857452 2.857452 2.857452
2.875428 2.875428 2.875428
2.893515 2.893515 2.893515
2.911712 2.911712 2.911712
2.930022 2.930022 2.930022
2.948444 2.948444 2.948444
2.966979 2.966979 2.966979
2.985629 2.985629 2.985629
3.004393 3.004393 3.004393
3.023272 3.023272 3.023272
3.042267 3.042267 3.042267
3.061380 3.061380 3.061380
3.080609 3.080609 3.080609
3.099957 3.099957 3.099957
3.119424 3.119424 3.119424
3.139010 3.139010 3.139010
3.158717 3.158717 3.158717
3.178545 3.178545 3.178545
3.198495 3.198495 3.198495
3.218568 3.218568 3.218568
3.238764 3.238764 3.238764
3.259084 3.259084 3.259084
3.279529 3.279529 3.279529
3.300099 3.300099 3.300099
3.320797 3.320797 3.320797
3.341621 3.341621 3.341621
3.362573 3.362573 3.362573
3.383655 3.383655 3.383655
3.404865 3.404865 3.404865
3.426207 3.426207 3.426207
3.447679 3.447679 3.447679
3.469283 3.469283 3.469283
3.491020 3.491020 3.491020
3.512891 3.512891 3.512891
3.534897 3.534897 3.534897
3.557037 3.557037 3.557037
3.579314 3.579314 3.579314
3.601727 3.601727 3.601727
3.624279 3.624279 3.624279
3.646969 3.646969 3.646969
3.669798 3.669798 3.669798
3.692768 3.692768 3.692768
3.715879 3.715879 3.715879
3.739132 3.739132 3.739132
3.762528 3.762528 3.762528
3.786068 3.786068 3.786068
3.809752 3.809752 3.809752
3.833583 3.833583 3.833583
3.857559 3.857559 3.857559
3.881683 3.881683 3.881683
3.905956 3.905956 3.905956
3.930377 3.930377 3.930377
3.954949 3.954949 3.954949
3.979672 3.979672 3.979672
4.004546 4.004546 4.004546
4.029574 4.029574 4.029574
4.054755 4.054755 4.054755
4.080092 4.080092 4.080092
4.105584 4.105584 4.105584
4.131232 4.131232 4.131232
4.157039 4.157039 4.157039
4.183004 4.183004 4.183004
4.209129 4.209129 4.209129
4.235414 4.235414 4.235414
4.261861 4.261861 4.261861
4.288470 4.288470 4.288470
4.315243 4.315243 4.315243
4.342181 4.342181 4.342181
4.369284 4.369284 4.369284
4.396554 4.396554 4.396554
4.423991 4.423991 4.423991
4.451597 4.451597 4.451597
4.479373 4.479373 4.479373
4.507320 4.507320 4.507320
4.535438 4.535438 4.535438
4.563729 4.563729 4.563729
4.592194 4.592194 4.592194
4.620834 4.620834 4.620834
4.649651 4.649651 4.649651
4.678644 4.678644 4.678644
4.707815 4.707815 4.707815
4.737166 4.737166 4.737166
4.766698 4.766698 4.766698
4.796410 4.796410 4.796410
4.826306 4.826306 4.826306
4.856385 4.856385 4.856385
4.886649 4.886649 4.886649
4.917100 4.917100 4.917100
4.947737 4.947737 4.947737
4.978563 4.978563 4.978563
5.009578 5.009578 5.009578
5.040784 5.040784 5.040784
5.072182 5.072182 5.072182
5.103772 5.103772 5.103772
5.135557 5.135557 5.135557
5.167538 5.167538 5.167538
5.199715 5.199715 5.199715
5.232089 5.232089 5.232089
5.264663 5.264663 5.264663
5.297437 5.297437 5.297437
5.330413 5.330413 5.330413
5.363591 5.363591 5.363591
5.396973 5.396973 5.396973
5.430560 5.430560 5.430560
5.464354 5.464354 5.464354
5.498356 5.498356 5.498356
5.532566 5.532566 5.532566
5.566987 5.566987 5.566987
5.601620 5.601620 5.601620
5.636465 5.636465 5.636465
5.671525 5.671525 5.671525
5.706800 5.706800 5.706800
5.742292 5.742292 5.742292
5.778002 5.778002 5.778002
5.813932 5.813932 5.813932
5.850082 5.850082 5.850082
5.886455 5.886455 5.886455
5.923051 5.923051 5.923051
5.959873 5.959873 5.959873
5.996920 5.996920 5.996920
6.034196 6.034196 6.034196
6.071701 6.071701 6.071701
6.109436 6.109436 6.109436
6.147403 6.147403 6.147403
6.185603 6.185603 6.185603
6.224039 6.224039 6.224039
