lib/data/lut_sample/AlexaV3_EI0800_LogC2Video_Rec709_LL_aftereffects3d.cube
# Alexa conversion LUT, logc2video, itu709. Legal in/legal out.
# created by alexalutconv (2.09)
LUT_3D_SIZE 8
DOMAIN_MIN 0.000000 0.000000 0.000000
DOMAIN_MAX 0.903226 0.903226 0.903226
0.022222 0.062561 0.062561
0.073570 0.062561 0.062641
0.204031 0.062561 0.064071
0.448495 0.062561 0.073802
0.735921 0.062561 0.103912
0.918866 0.062561 0.142459
0.918866 0.062561 0.155884
0.918866 0.062561 0.157656
0.062561 0.072072 0.062561
0.070596 0.071822 0.062561
0.202848 0.067344 0.063167
0.448164 0.062561 0.072897
0.735776 0.062561 0.103007
0.918866 0.062561 0.141834
0.918866 0.062561 0.155339
0.918866 0.062561 0.157121
0.062561 0.192293 0.062561
0.062561 0.192185 0.062561
0.179523 0.190223 0.062561
0.442173 0.175950 0.062561
0.733173 0.112899 0.086810
0.918866 0.062561 0.129866
0.918866 0.062561 0.145052
0.918866 0.062561 0.147026
0.062561 0.423978 0.062561
0.062561 0.423947 0.062561
0.062561 0.423401 0.062561
0.397303 0.419653 0.062561
0.715040 0.407691 0.062561
0.918866 0.388413 0.062561
0.918866 0.379010 0.062561
0.918866 0.377640 0.062561
0.062561 0.696379 0.062561
0.062561 0.696366 0.062561
0.062561 0.696127 0.062561
0.071991 0.694495 0.062561
0.653357 0.689404 0.062561
0.918866 0.681580 0.062561
0.918866 0.677935 0.062561
0.918866 0.677414 0.062561
0.062561 0.918866 0.062561
0.062561 0.918866 0.062561
0.062561 0.918866 0.062561
0.062561 0.918866 0.062561
0.535491 0.916646 0.062561
0.864484 0.911824 0.062561
0.918866 0.909595 0.062561
0.918866 0.909277 0.062561
0.062561 0.918866 0.062561
0.062561 0.918866 0.062561
0.062561 0.918866 0.062561
0.062561 0.918866 0.062561
0.463075 0.918866 0.062561
0.834679 0.918866 0.062561
0.918866 0.918866 0.062561
0.918866 0.918866 0.062561
0.062561 0.918866 0.062561
0.062561 0.918866 0.062561
0.062561 0.918866 0.062561
0.062561 0.918866 0.062561
0.451138 0.918866 0.062561
0.830289 0.918866 0.062561
0.918866 0.918866 0.062561
0.918866 0.918866 0.062561
0.062561 0.062561 0.070799
0.072949 0.062561 0.070879
0.203784 0.062561 0.072310
0.448425 0.062561 0.082040
0.735891 0.062561 0.112137
0.918866 0.062561 0.147966
0.918866 0.062561 0.160714
0.918866 0.062561 0.162407
0.062561 0.070225 0.069895
0.069975 0.069975 0.069975
0.202599 0.065497 0.071405
0.448095 0.062561 0.081135
0.735746 0.062561 0.111243
0.918866 0.062561 0.147376
0.918866 0.062561 0.160195
0.918866 0.062561 0.161895
0.062561 0.191489 0.062561
0.062561 0.191379 0.062561
0.179223 0.189404 0.062561
0.442103 0.175025 0.064938
0.733142 0.111082 0.095049
0.918866 0.062561 0.136150
0.918866 0.062561 0.150418
0.918866 0.062561 0.152288
0.062561 0.423753 0.062561
0.062561 0.423722 0.062561
0.062561 0.423175 0.062561
0.397219 0.419424 0.062561
0.715009 0.407450 0.062561
0.918866 0.388153 0.062561
0.918866 0.378738 0.062561
0.918866 0.377367 0.062561
0.062561 0.696281 0.062561
0.062561 0.696267 0.062561
0.062561 0.696028 0.062561
0.071369 0.694396 0.062561
0.653321 0.689303 0.062561
0.918866 0.681477 0.062561
0.918866 0.677832 0.062561
0.918866 0.677310 0.062561
0.062561 0.918866 0.062561
0.062561 0.918866 0.062561
0.062561 0.918866 0.062561
0.062561 0.918866 0.062561
0.535439 0.916584 0.062561
0.864461 0.911761 0.062561
0.918866 0.909532 0.062561
0.918866 0.909214 0.062561
0.062561 0.918866 0.062561
0.062561 0.918866 0.062561
0.062561 0.918866 0.062561
0.062561 0.918866 0.062561
0.463010 0.918866 0.062561
0.834654 0.918866 0.062561
0.918866 0.918866 0.062561
0.918866 0.918866 0.062561
0.062561 0.918866 0.062561
0.062561 0.918866 0.062561
0.062561 0.918866 0.062561
0.062561 0.918866 0.062561
0.451069 0.918866 0.062561
0.830264 0.918866 0.062561
0.918866 0.918866 0.062561
0.918866 0.918866 0.062561
0.062561 0.062561 0.181368
0.062561 0.062561 0.181406
0.199296 0.062561 0.182083
0.447187 0.062561 0.186596
0.735349 0.062561 0.199587
0.918866 0.062561 0.217036
0.918866 0.062561 0.224356
0.918866 0.062561 0.225368
0.062561 0.062561 0.180937
0.062561 0.062561 0.180975
0.198068 0.062561 0.181656
0.446854 0.062561 0.186184
0.735204 0.062561 0.199215
0.918866 0.062561 0.216711
0.918866 0.062561 0.224048
0.918866 0.062561 0.225061
0.062561 0.176082 0.172932
0.062561 0.175957 0.172973
0.173703 0.173703 0.173703
0.440834 0.157003 0.178546
0.732597 0.078009 0.192377
0.918866 0.062561 0.210750
0.918866 0.062561 0.218402
0.918866 0.062561 0.219457
0.062561 0.419686 0.091035
0.062561 0.419655 0.091115
0.062561 0.419099 0.092545
0.395705 0.415287 0.102275
0.714440 0.403109 0.129885
0.918866 0.383446 0.160319
0.918866 0.373836 0.171724
0.918866 0.372434 0.173254
0.062561 0.694509 0.062561
0.062561 0.694496 0.062561
0.062561 0.694256 0.062561
0.062561 0.692616 0.062561
0.652659 0.687502 0.062561
0.918866 0.679641 0.062561
0.918866 0.675979 0.062561
0.918866 0.675455 0.062561
0.062561 0.918866 0.062561
0.062561 0.918866 0.062561
0.062561 0.918866 0.062561
0.062561 0.918639 0.062561
0.534516 0.915469 0.062561
0.864047 0.910637 0.062561
0.918866 0.908403 0.062561
0.918866 0.908084 0.062561
0.062561 0.918866 0.062561
0.062561 0.918866 0.062561
0.062561 0.918866 0.062561
0.062561 0.918866 0.062561
0.461834 0.918866 0.062561
0.834215 0.918866 0.062561
0.918866 0.918866 0.062561
0.918866 0.918866 0.062561
0.062561 0.918866 0.062561
0.062561 0.918866 0.062561
0.062561 0.918866 0.062561
0.062561 0.918866 0.062561
0.449842 0.918866 0.062561
0.829821 0.918866 0.062561
0.918866 0.918866 0.062561
0.918866 0.918866 0.062561
0.062561 0.062561 0.401156
0.062561 0.062561 0.401167
0.163357 0.062561 0.401358
0.438604 0.062561 0.402652
0.731643 0.062561 0.406615
0.918866 0.062561 0.412493
0.918866 0.062561 0.415146
0.918866 0.062561 0.415522
0.062561 0.062561 0.401035
0.062561 0.062561 0.401046
0.161681 0.062561 0.401237
0.438261 0.062561 0.402532
0.731497 0.062561 0.406497
0.918866 0.062561 0.412377
0.918866 0.062561 0.415033
0.918866 0.062561 0.415408
0.062561 0.062561 0.398862
0.062561 0.062561 0.398873
0.125572 0.062561 0.399066
0.432042 0.062561 0.400373
0.728868 0.062561 0.404372
0.918866 0.062561 0.410302
0.918866 0.062561 0.412979
0.918866 0.062561 0.413358
0.062561 0.390116 0.383537
0.062561 0.390080 0.383549
0.062561 0.389454 0.383754
0.385147 0.385147 0.385147
0.710549 0.371291 0.389405
0.918866 0.348563 0.395706
0.918866 0.337265 0.398546
0.918866 0.335606 0.398947
0.062561 0.682252 0.328236
0.062561 0.682238 0.328251
0.062561 0.681990 0.328516
0.062561 0.680301 0.330307
0.648125 0.675029 0.335755
0.918866 0.666920 0.343732
0.918866 0.663139 0.347298
0.918866 0.662598 0.347800
0.062561 0.912236 0.190244
0.062561 0.912228 0.190279
0.062561 0.912075 0.190909
0.062561 0.911041 0.195110
0.528167 0.907825 0.207291
0.861226 0.902924 0.223828
0.918866 0.900658 0.230814
0.918866 0.900334 0.231782
0.062561 0.918866 0.062561
0.062561 0.918866 0.062561
0.062561 0.918866 0.062561
0.062561 0.918866 0.062561
0.453708 0.918866 0.062561
0.831221 0.918866 0.087674
0.918866 0.918866 0.108597
0.918866 0.918866 0.111570
0.062561 0.918866 0.062561
0.062561 0.918866 0.062561
0.062561 0.918866 0.062561
0.062561 0.918866 0.062561
0.441345 0.918866 0.062561
0.826800 0.918866 0.062561
0.918866 0.918866 0.074879
0.918866 0.918866 0.077857
0.062561 0.062561 0.659571
0.062561 0.062561 0.659576
0.062561 0.062561 0.659660
0.410114 0.062561 0.660229
0.719970 0.062561 0.661984
0.918866 0.062561 0.664625
0.918866 0.062561 0.665832
0.918866 0.062561 0.666004
0.062561 0.062561 0.659519
0.062561 0.062561 0.659523
0.062561 0.062561 0.659607
0.409731 0.062561 0.660176
0.719819 0.062561 0.661932
0.918866 0.062561 0.664573
0.918866 0.062561 0.665781
0.918866 0.062561 0.665952
0.062561 0.062561 0.658570
0.062561 0.062561 0.658574
0.062561 0.062561 0.658658
0.402768 0.062561 0.659228
0.717119 0.062561 0.660988
0.918866 0.062561 0.663636
0.918866 0.062561 0.664846
0.918866 0.062561 0.665018
0.062561 0.260104 0.652051
0.062561 0.260036 0.652055
0.062561 0.258824 0.652141
0.349019 0.250330 0.652721
0.698275 0.220585 0.654510
0.918866 0.157222 0.657202
0.918866 0.107135 0.658431
0.918866 0.097813 0.658606
0.062561 0.641764 0.631154
0.062561 0.641749 0.631160
0.062561 0.641475 0.631249
0.062561 0.639602 0.631861
0.633750 0.633750 0.633750
0.913212 0.624722 0.636590
0.918866 0.620501 0.637887
0.918866 0.619896 0.638072
0.062561 0.888073 0.597149
0.062561 0.888064 0.597154
0.062561 0.887905 0.597253
0.062561 0.886822 0.597925
0.507667 0.883456 0.599995
0.852394 0.878323 0.603104
0.918866 0.875948 0.604524
0.918866 0.875610 0.604725
0.062561 0.918866 0.580388
0.062561 0.918866 0.580394
0.062561 0.918866 0.580498
0.062561 0.918866 0.581202
0.426896 0.918866 0.583371
0.821838 0.918866 0.586629
0.918866 0.918866 0.588115
0.918866 0.918866 0.588326
0.062561 0.918866 0.577937
0.062561 0.918866 0.577942
0.062561 0.918866 0.578046
0.062561 0.918866 0.578755
0.413173 0.918866 0.580941
0.817331 0.918866 0.584220
0.918866 0.918866 0.585717
0.918866 0.918866 0.585930
0.062561 0.062561 0.872645
0.062561 0.062561 0.872648
0.062561 0.062561 0.872700
0.359539 0.062561 0.873055
0.701682 0.062561 0.874155
0.918866 0.062561 0.875813
0.918866 0.062561 0.876574
0.918866 0.062561 0.876682
0.062561 0.062561 0.872612
0.062561 0.062561 0.872615
0.062561 0.062561 0.872667
0.359063 0.062561 0.873023
0.701525 0.062561 0.874122
0.918866 0.062561 0.875780
0.918866 0.062561 0.876540
0.918866 0.062561 0.876649
0.062561 0.062561 0.872019
0.062561 0.062561 0.872022
0.062561 0.062561 0.872074
0.350369 0.062561 0.872430
0.698705 0.062561 0.873531
0.918866 0.062561 0.875192
0.918866 0.062561 0.875952
0.918866 0.062561 0.876060
0.062561 0.062561 0.867969
0.062561 0.062561 0.867972
0.062561 0.062561 0.868024
0.278618 0.062561 0.868383
0.678990 0.062561 0.869492
0.918866 0.062561 0.871166
0.918866 0.062561 0.871933
0.918866 0.062561 0.872042
0.062561 0.570859 0.855229
0.062561 0.570840 0.855232
0.062561 0.570506 0.855286
0.062561 0.568228 0.855654
0.610907 0.561078 0.856791
0.901077 0.549965 0.858506
0.918866 0.544733 0.859292
0.918866 0.543982 0.859404
0.062561 0.849259 0.835325
0.062561 0.849249 0.835328
0.062561 0.849077 0.835384
0.062561 0.847909 0.835767
0.473757 0.844278 0.836950
0.838734 0.838734 0.838734
0.918866 0.836166 0.839551
0.918866 0.835800 0.839667
0.062561 0.918866 0.825908
0.062561 0.918866 0.825911
0.062561 0.918866 0.825969
0.062561 0.918866 0.826359
0.380091 0.918866 0.827565
0.807291 0.918866 0.829383
0.915043 0.918866 0.830216
0.918866 0.918866 0.830334
0.062561 0.918866 0.824553
0.062561 0.918866 0.824556
0.062561 0.918866 0.824614
0.062561 0.918866 0.825005
0.363324 0.918866 0.826214
0.802645 0.918866 0.828037
0.911286 0.918866 0.828873
0.918866 0.918866 0.828991
0.062561 0.062561 0.918866
0.062561 0.062561 0.918866
0.062561 0.062561 0.918866
0.331847 0.062561 0.918866
0.693008 0.062561 0.918866
0.918866 0.062561 0.918866
0.918866 0.062561 0.918866
0.918866 0.062561 0.918866
0.062561 0.062561 0.918866
0.062561 0.062561 0.918866
0.062561 0.062561 0.918866
0.331305 0.062561 0.918866
0.692848 0.062561 0.918866
0.918866 0.062561 0.918866
0.918866 0.062561 0.918866
0.918866 0.062561 0.918866
0.062561 0.062561 0.918866
0.062561 0.062561 0.918866
0.062561 0.062561 0.918866
0.321347 0.062561 0.918866
0.689968 0.062561 0.918866
0.918866 0.062561 0.918866
0.918866 0.062561 0.918866
0.918866 0.062561 0.918866
0.062561 0.062561 0.918866
0.062561 0.062561 0.918866
0.062561 0.062561 0.918866
0.233759 0.062561 0.918866
0.669815 0.062561 0.918866
0.918866 0.062561 0.918866
0.918866 0.062561 0.918866
0.918866 0.062561 0.918866
0.062561 0.532738 0.918866
0.062561 0.532718 0.918866
0.062561 0.532343 0.918866
0.062561 0.529785 0.918866
0.599920 0.521735 0.918866
0.895410 0.509150 0.918866
0.918866 0.503192 0.918866
0.918866 0.502334 0.918866
0.062561 0.830385 0.913907
0.062561 0.830375 0.913910
0.062561 0.830197 0.913959
0.062561 0.828984 0.914287
0.456744 0.825211 0.915304
0.832331 0.819447 0.916840
0.918866 0.816777 0.917543
0.918866 0.816395 0.917643
0.062561 0.918866 0.905832
0.062561 0.918866 0.905834
0.062561 0.918866 0.905884
0.062561 0.918866 0.906218
0.355035 0.916573 0.907250
0.800459 0.911751 0.908807
0.909522 0.909522 0.909522
0.918866 0.909204 0.909624
0.062561 0.918866 0.904672
0.062561 0.918866 0.904675
0.062561 0.918866 0.904724
0.062561 0.918866 0.905059
0.336151 0.918866 0.906094
0.795746 0.918866 0.907655
0.905727 0.918866 0.908371
0.918866 0.918866 0.908472
0.062561 0.062561 0.918866
0.062561 0.062561 0.918866
0.062561 0.062561 0.918866
0.327590 0.062561 0.918866
0.691759 0.062561 0.918866
0.918866 0.062561 0.918866
0.918866 0.062561 0.918866
0.918866 0.062561 0.918866
0.062561 0.062561 0.918866
0.062561 0.062561 0.918866
0.062561 0.062561 0.918866
0.327036 0.062561 0.918866
0.691598 0.062561 0.918866
0.918866 0.062561 0.918866
0.918866 0.062561 0.918866
0.918866 0.062561 0.918866
0.062561 0.062561 0.918866
0.062561 0.062561 0.918866
0.062561 0.062561 0.918866
0.316857 0.062561 0.918866
0.688709 0.062561 0.918866
0.918866 0.062561 0.918866
0.918866 0.062561 0.918866
0.918866 0.062561 0.918866
0.062561 0.062561 0.918866
0.062561 0.062561 0.918866
0.062561 0.062561 0.918866
0.226168 0.062561 0.918866
0.668492 0.062561 0.918866
0.918866 0.062561 0.918866
0.918866 0.062561 0.918866
0.918866 0.062561 0.918866
0.062561 0.526933 0.918866
0.062561 0.526912 0.918866
0.062561 0.526531 0.918866
0.062561 0.523925 0.918866
0.598329 0.515722 0.918866
0.894598 0.502884 0.918866
0.918866 0.496801 0.918866
0.918866 0.495925 0.918866
0.062561 0.827640 0.918866
0.062561 0.827629 0.918866
0.062561 0.827450 0.918866
0.062561 0.826230 0.918866
0.454236 0.822436 0.918866
0.831413 0.816640 0.918866
0.918866 0.813954 0.918866
0.918866 0.813570 0.918866
0.062561 0.918609 0.916276
0.062561 0.918601 0.916279
0.062561 0.918451 0.916326
0.062561 0.917428 0.916654
0.351226 0.914250 0.917667
0.799478 0.909408 0.918866
0.908732 0.907169 0.918866
0.918866 0.906849 0.918866
0.062561 0.918866 0.915138
0.062561 0.918866 0.915141
0.062561 0.918866 0.915190
0.062561 0.918866 0.915518
0.331983 0.918866 0.916533
0.794755 0.918866 0.918064
0.904931 0.918866 0.918766
0.918866 0.918866 0.918866
