lib/data/lut_sample/AlexaV3_EI0800_LogC2Video_Rec709_LL_aftereffects3d.cube
# Alexa conversion LUT, logc2video, itu709. Legal in/legal out.
# created by alexalutconv (2.09)
LUT_3D_SIZE 32
0.022222 0.062561 0.062561
0.062561 0.062561 0.062561
0.062561 0.062561 0.062561
0.062561 0.062561 0.062561
0.073570 0.062561 0.062641
0.099285 0.062561 0.062827
0.130563 0.062561 0.063074
0.165117 0.062561 0.063460
0.204031 0.062561 0.064071
0.249139 0.062561 0.065049
0.307113 0.062561 0.066790
0.375427 0.062561 0.069646
0.448495 0.062561 0.073802
0.521603 0.062561 0.079242
0.594104 0.062561 0.086045
0.665686 0.062561 0.094268
0.735921 0.062561 0.103912
0.804362 0.062561 0.114809
0.870553 0.062561 0.125667
0.918866 0.062561 0.135148
0.918866 0.062561 0.142459
0.918866 0.062561 0.147893
0.918866 0.062561 0.151747
0.918866 0.062561 0.154313
0.918866 0.062561 0.155884
0.918866 0.062561 0.156753
0.918866 0.062561 0.157214
0.918866 0.062561 0.157559
0.918866 0.062561 0.157656
0.918866 0.062561 0.157656
0.918866 0.062561 0.157656
0.918866 0.062561 0.157656
0.062561 0.062561 0.062561
0.062561 0.062561 0.062561
0.062561 0.062561 0.062561
0.062561 0.062561 0.062561
0.073570 0.062561 0.062641
0.099285 0.062561 0.062827
0.130563 0.062561 0.063074
0.165117 0.062561 0.063460
0.204031 0.062561 0.064071
0.249139 0.062561 0.065049
0.307113 0.062561 0.066790
0.375427 0.062561 0.069646
0.448495 0.062561 0.073802
0.521603 0.062561 0.079242
0.594104 0.062561 0.086045
0.665686 0.062561 0.094268
0.735921 0.062561 0.103912
0.804362 0.062561 0.114809
0.870553 0.062561 0.125667
0.918866 0.062561 0.135148
0.918866 0.062561 0.142459
0.918866 0.062561 0.147893
0.918866 0.062561 0.151747
0.918866 0.062561 0.154313
0.918866 0.062561 0.155884
0.918866 0.062561 0.156753
0.918866 0.062561 0.157214
0.918866 0.062561 0.157559
0.918866 0.062561 0.157656
0.918866 0.062561 0.157656
0.918866 0.062561 0.157656
0.918866 0.062561 0.157656
0.062561 0.062561 0.062561
0.062561 0.062561 0.062561
0.062561 0.062561 0.062561
0.062561 0.062561 0.062561
0.073570 0.062561 0.062641
0.099285 0.062561 0.062827
0.130563 0.062561 0.063074
0.165117 0.062561 0.063460
0.204031 0.062561 0.064071
0.249139 0.062561 0.065049
0.307113 0.062561 0.066790
0.375427 0.062561 0.069646
0.448495 0.062561 0.073802
0.521603 0.062561 0.079242
0.594104 0.062561 0.086045
0.665686 0.062561 0.094268
0.735921 0.062561 0.103912
0.804362 0.062561 0.114809
0.870553 0.062561 0.125667
0.918866 0.062561 0.135148
0.918866 0.062561 0.142459
0.918866 0.062561 0.147893
0.918866 0.062561 0.151747
0.918866 0.062561 0.154313
0.918866 0.062561 0.155884
0.918866 0.062561 0.156753
0.918866 0.062561 0.157214
0.918866 0.062561 0.157559
0.918866 0.062561 0.157656
0.918866 0.062561 0.157656
0.918866 0.062561 0.157656
0.918866 0.062561 0.157656
0.062561 0.062561 0.062561
0.062561 0.062561 0.062561
0.062561 0.062561 0.062561
0.062561 0.062561 0.062561
0.073570 0.062561 0.062641
0.099285 0.062561 0.062827
0.130563 0.062561 0.063074
0.165117 0.062561 0.063460
0.204031 0.062561 0.064071
0.249139 0.062561 0.065049
0.307113 0.062561 0.066790
0.375427 0.062561 0.069646
0.448495 0.062561 0.073802
0.521603 0.062561 0.079242
0.594104 0.062561 0.086045
0.665686 0.062561 0.094268
0.735921 0.062561 0.103912
0.804362 0.062561 0.114809
0.870553 0.062561 0.125667
0.918866 0.062561 0.135148
0.918866 0.062561 0.142459
0.918866 0.062561 0.147893
0.918866 0.062561 0.151747
0.918866 0.062561 0.154313
0.918866 0.062561 0.155884
0.918866 0.062561 0.156753
0.918866 0.062561 0.157214
0.918866 0.062561 0.157559
0.918866 0.062561 0.157656
0.918866 0.062561 0.157656
0.918866 0.062561 0.157656
0.918866 0.062561 0.157656
0.062561 0.072072 0.062561
0.062561 0.072072 0.062561
0.062561 0.072072 0.062561
0.062561 0.072072 0.062561
0.070596 0.071822 0.062561
0.096310 0.071238 0.062561
0.128199 0.070466 0.062561
0.163469 0.069258 0.062561
0.202848 0.067344 0.063167
0.248278 0.064286 0.064144
0.306498 0.062561 0.065885
0.374985 0.062561 0.068742
0.448164 0.062561 0.072897
0.521345 0.062561 0.078337
0.593897 0.062561 0.085141
0.665514 0.062561 0.093363
0.735776 0.062561 0.103007
0.804237 0.062561 0.113946
0.870444 0.062561 0.124912
0.918866 0.062561 0.134471
0.918866 0.062561 0.141834
0.918866 0.062561 0.147303
0.918866 0.062561 0.151180
0.918866 0.062561 0.153760
0.918866 0.062561 0.155339
0.918866 0.062561 0.156213
0.918866 0.062561 0.156677
0.918866 0.062561 0.157024
0.918866 0.062561 0.157121
0.918866 0.062561 0.157121
0.918866 0.062561 0.157121
0.918866 0.062561 0.157121
0.062561 0.094286 0.062561
0.062561 0.094286 0.062561
0.062561 0.094286 0.062561
0.062561 0.094286 0.062561
0.063649 0.094036 0.062561
0.089363 0.093452 0.062561
0.122408 0.092681 0.062561
0.159518 0.091472 0.062561
0.200042 0.089559 0.062561
0.246248 0.086500 0.062561
0.305055 0.081049 0.063773
0.373946 0.072108 0.066629
0.447390 0.062561 0.070784
0.520742 0.062561 0.076225
0.593412 0.062561 0.083028
0.665114 0.062561 0.091251
0.735437 0.062561 0.100894
0.803946 0.062561 0.111893
0.870189 0.062561 0.123124
0.918866 0.062561 0.132871
0.918866 0.062561 0.140359
0.918866 0.062561 0.145911
0.918866 0.062561 0.149842
0.918866 0.062561 0.152456
0.918866 0.062561 0.154056
0.918866 0.062561 0.154941
0.918866 0.062561 0.155410
0.918866 0.062561 0.155762
0.918866 0.062561 0.155860
0.918866 0.062561 0.155860
0.918866 0.062561 0.155860
0.918866 0.062561 0.155860
0.062561 0.122667 0.062561
0.062561 0.122667 0.062561
0.062561 0.122667 0.062561
0.062561 0.122667 0.062561
0.062561 0.122452 0.062561
0.080187 0.121946 0.062561
0.114075 0.121274 0.062561
0.154058 0.120209 0.062561
0.196239 0.118495 0.062561
0.243525 0.115677 0.062561
0.303131 0.110389 0.062561
0.372568 0.101448 0.063838
0.446364 0.088441 0.067994
0.519945 0.071410 0.073434
0.592771 0.062561 0.080237
0.664584 0.062561 0.088460
0.734990 0.062561 0.098104
0.803560 0.062561 0.109112
0.869851 0.062561 0.120701
0.918866 0.062561 0.130714
0.918866 0.062561 0.138374
0.918866 0.062561 0.144041
0.918866 0.062561 0.148047
0.918866 0.062561 0.150708
0.918866 0.062561 0.152336
0.918866 0.062561 0.153236
0.918866 0.062561 0.153713
0.918866 0.062561 0.154071
0.918866 0.062561 0.154170
0.918866 0.062561 0.154170
0.918866 0.062561 0.154170
0.918866 0.062561 0.154170
0.062561 0.155414 0.062561
0.062561 0.155414 0.062561
0.062561 0.155414 0.062561
0.062561 0.155414 0.062561
0.062561 0.155263 0.062561
0.065807 0.154910 0.062561
0.099769 0.154441 0.062561
0.144857 0.153702 0.062561
0.190037 0.152522 0.062561
0.239159 0.150606 0.062561
0.300077 0.147095 0.062561
0.370390 0.141046 0.062561
0.444749 0.131478 0.063620
0.518691 0.117117 0.069061
0.591764 0.096094 0.075864
0.663752 0.070354 0.084087
0.734287 0.062561 0.093731
0.802956 0.062561 0.104739
0.869322 0.062561 0.116753
0.918866 0.062561 0.127220
0.918866 0.062561 0.135174
0.918866 0.062561 0.141034
0.918866 0.062561 0.145165
0.918866 0.062561 0.147905
0.918866 0.062561 0.149579
0.918866 0.062561 0.150505
0.918866 0.062561 0.150995
0.918866 0.062561 0.151362
0.918866 0.062561 0.151465
0.918866 0.062561 0.151465
0.918866 0.062561 0.151465
0.918866 0.062561 0.151465
0.062561 0.192293 0.062561
0.062561 0.192293 0.062561
0.062561 0.192293 0.062561
0.062561 0.192293 0.062561
0.062561 0.192185 0.062561
0.062561 0.191931 0.062561
0.077013 0.191594 0.062561
0.128170 0.191065 0.062561
0.179523 0.190223 0.062561
0.231978 0.188865 0.062561
0.295137 0.186405 0.062561
0.366901 0.182258 0.062561
0.442173 0.175950 0.062561
0.516697 0.167122 0.062561
0.590164 0.154962 0.068943
0.662432 0.137986 0.077166
0.733173 0.112899 0.086810
0.801998 0.078471 0.097818
0.868484 0.062561 0.110075
0.918866 0.062561 0.121382
0.918866 0.062561 0.129866
0.918866 0.062561 0.136069
0.918866 0.062561 0.140420
0.918866 0.062561 0.143297
0.918866 0.062561 0.145052
0.918866 0.062561 0.146021
0.918866 0.062561 0.146534
0.918866 0.062561 0.146919
0.918866 0.062561 0.147026
0.918866 0.062561 0.147026
0.918866 0.062561 0.147026
0.918866 0.062561 0.147026
0.062561 0.235044 0.062561
0.062561 0.235044 0.062561
0.062561 0.235044 0.062561
0.062561 0.235044 0.062561
0.062561 0.234965 0.062561
0.062561 0.234779 0.062561
0.062561 0.234534 0.062561
0.093862 0.234149 0.062561
0.160407 0.233539 0.062561
0.219708 0.232557 0.062561
0.286953 0.230791 0.062561
0.361210 0.227846 0.062561
0.438003 0.223452 0.062561
0.513483 0.217484 0.062561
0.587590 0.209637 0.062561
0.660313 0.199490 0.066103
0.731386 0.186454 0.075747
0.800462 0.169592 0.086755
0.867141 0.147125 0.099012
0.918866 0.118253 0.111081
0.918866 0.086649 0.120640
0.918866 0.062561 0.127514
0.918866 0.062561 0.132290
0.918866 0.062561 0.135429
0.918866 0.062561 0.137338
0.918866 0.062561 0.138389
0.918866 0.062561 0.138945
0.918866 0.062561 0.139362
0.918866 0.062561 0.139478
0.918866 0.062561 0.139478
0.918866 0.062561 0.139478
0.918866 0.062561 0.139478
0.062561 0.289987 0.062561
0.062561 0.289987 0.062561
0.062561 0.289987 0.062561
0.062561 0.289987 0.062561
0.062561 0.289931 0.062561
0.062561 0.289798 0.062561
0.062561 0.289623 0.062561
0.062561 0.289349 0.062561
0.113212 0.288914 0.062561
0.194667 0.288216 0.062561
0.271353 0.286966 0.062561
0.350685 0.284896 0.062561
0.430404 0.281840 0.062561
0.507670 0.277757 0.062561
0.582958 0.272513 0.062561
0.656507 0.265949 0.062561
0.728184 0.257904 0.062561
0.797711 0.248201 0.067037
0.864739 0.236634 0.079294
0.918866 0.224291 0.091364
0.918866 0.212934 0.101581
0.918866 0.203167 0.109708
0.918866 0.195396 0.115594
0.918866 0.189760 0.119403
0.918866 0.186102 0.121695
0.918866 0.184003 0.122952
0.918866 0.182867 0.123615
0.918866 0.182006 0.124111
0.918866 0.181764 0.124249
0.918866 0.181764 0.124249
0.918866 0.181764 0.124249
0.918866 0.181764 0.124249
0.062561 0.354730 0.062561
0.062561 0.354730 0.062561
0.062561 0.354730 0.062561
0.062561 0.354730 0.062561
0.062561 0.354689 0.062561
0.062561 0.354594 0.062561
0.062561 0.354468 0.062561
0.062561 0.354270 0.062561
0.062561 0.353957 0.062561
0.136836 0.353456 0.062561
0.242104 0.352559 0.062561
0.332212 0.351079 0.062561
0.417439 0.348909 0.062561
0.497888 0.346033 0.062561
0.575223 0.342382 0.062561
0.650183 0.337882 0.062561
0.722877 0.332478 0.062561
0.793165 0.326129 0.062561
0.860773 0.318815 0.062561
0.918866 0.311337 0.062561
0.918866 0.304772 0.069237
0.918866 0.299381 0.077364
0.918866 0.295268 0.083408
0.918866 0.292386 0.087564
0.918866 0.290561 0.090160
0.918866 0.289531 0.091615
0.918866 0.288979 0.092391
0.918866 0.288562 0.092975
0.918866 0.288446 0.093138
0.918866 0.288446 0.093138
0.918866 0.288446 0.093138
0.918866 0.288446 0.093138
0.062561 0.423978 0.062561
0.062561 0.423978 0.062561
0.062561 0.423978 0.062561
0.062561 0.423978 0.062561
0.062561 0.423947 0.062561
0.062561 0.423876 0.062561
0.062561 0.423782 0.062561
0.062561 0.423635 0.062561
0.062561 0.423401 0.062561
0.062561 0.423027 0.062561
0.185338 0.422359 0.062561
0.301912 0.421260 0.062561
0.397303 0.419653 0.062561
0.483062 0.417533 0.062561
0.563651 0.414857 0.062561
0.640796 0.411584 0.062561
0.715040 0.407691 0.062561
0.786472 0.403170 0.062561
0.854950 0.398037 0.062561
0.914383 0.392873 0.062561
0.918866 0.388413 0.062561
0.918866 0.384805 0.062561
0.918866 0.382086 0.062561
0.918866 0.380197 0.062561
0.918866 0.379010 0.062561
0.918866 0.378341 0.062561
0.918866 0.377984 0.062561
0.918866 0.377715 0.062561
0.918866 0.377640 0.062561
0.918866 0.377640 0.062561
0.918866 0.377640 0.062561
0.918866 0.377640 0.062561
0.062561 0.493264 0.062561
0.062561 0.493264 0.062561
0.062561 0.493264 0.062561
0.062561 0.493264 0.062561
0.062561 0.493240 0.062561
0.062561 0.493185 0.062561
0.062561 0.493112 0.062561
0.062561 0.492997 0.062561
0.062561 0.492815 0.062561
0.062561 0.492524 0.062561
0.062561 0.492005 0.062561
0.252720 0.491151 0.062561
0.368100 0.489905 0.062561
0.462432 0.488265 0.062561
0.547876 0.486202 0.062561
0.628145 0.483688 0.062561
0.704556 0.480712 0.062561
0.777562 0.477278 0.062561
0.847223 0.473405 0.062561
0.907492 0.469540 0.062561
0.918866 0.466227 0.062561
0.918866 0.463562 0.062561
0.918866 0.461565 0.062561
0.918866 0.460183 0.062561
0.918866 0.459316 0.062561
0.918866 0.458829 0.062561
0.918866 0.458569 0.062561
0.918866 0.458373 0.062561
0.918866 0.458318 0.062561
0.918866 0.458318 0.062561
0.918866 0.458318 0.062561
0.918866 0.458318 0.062561
0.062561 0.561976 0.062561
0.062561 0.561976 0.062561
0.062561 0.561976 0.062561
0.062561 0.561976 0.062561
0.062561 0.561957 0.062561
0.062561 0.561912 0.062561
0.062561 0.561853 0.062561
0.062561 0.561761 0.062561
0.062561 0.561614 0.062561
0.062561 0.561380 0.062561
0.062561 0.560962 0.062561
0.152340 0.560276 0.062561
0.325198 0.559275 0.062561
0.434280 0.557960 0.062561
0.527020 0.556308 0.062561
0.611703 0.554301 0.062561
0.691067 0.551931 0.062561
0.766173 0.549205 0.062561
0.837389 0.546143 0.062561
0.898749 0.543099 0.062561
0.918866 0.540501 0.062561
0.918866 0.538419 0.062561
0.918866 0.536862 0.062561
0.918866 0.535787 0.062561
0.918866 0.535114 0.062561
0.918866 0.534736 0.062561
0.918866 0.534534 0.062561
0.918866 0.534382 0.062561
0.918866 0.534340 0.062561
0.918866 0.534340 0.062561
0.918866 0.534340 0.062561
0.918866 0.534340 0.062561
0.062561 0.629816 0.062561
0.062561 0.629816 0.062561
0.062561 0.629816 0.062561
0.062561 0.629816 0.062561
0.062561 0.629800 0.062561
0.062561 0.629763 0.062561
0.062561 0.629714 0.062561
0.062561 0.629638 0.062561
0.062561 0.629517 0.062561
0.062561 0.629323 0.062561
0.062561 0.628978 0.062561
0.062561 0.628411 0.062561
0.256392 0.627584 0.062561
0.395634 0.626500 0.062561
0.499824 0.625139 0.062561
0.590788 0.623488 0.062561
0.674150 0.621542 0.062561
0.752016 0.619308 0.062561
0.825239 0.616805 0.062561
0.887986 0.614323 0.062561
0.918866 0.612209 0.062561
0.918866 0.610518 0.062561
0.918866 0.609257 0.062561
0.918866 0.608386 0.062561
0.918866 0.607842 0.062561
0.918866 0.607536 0.062561
0.918866 0.607373 0.062561
0.918866 0.607250 0.062561
0.918866 0.607216 0.062561
0.918866 0.607216 0.062561
0.918866 0.607216 0.062561
0.918866 0.607216 0.062561
0.062561 0.696379 0.062561
0.062561 0.696379 0.062561
0.062561 0.696379 0.062561
0.062561 0.696379 0.062561
0.062561 0.696366 0.062561
0.062561 0.696335 0.062561
0.062561 0.696294 0.062561
0.062561 0.696229 0.062561
0.062561 0.696127 0.062561
0.062561 0.695963 0.062561
0.062561 0.695671 0.062561
0.062561 0.695193 0.062561
0.071991 0.694495 0.062561
0.340504 0.693580 0.062561
0.464432 0.692432 0.062561
0.564571 0.691041 0.062561
0.653357 0.689404 0.062561
0.734821 0.687527 0.062561
0.810593 0.685427 0.062561
0.875077 0.683348 0.062561
0.918866 0.681580 0.062561
0.918866 0.680168 0.062561
0.918866 0.679115 0.062561
0.918866 0.678390 0.062561
0.918866 0.677935 0.062561
0.918866 0.677681 0.062561
0.918866 0.677545 0.062561
0.918866 0.677442 0.062561
0.918866 0.677414 0.062561
0.918866 0.677414 0.062561
0.918866 0.677414 0.062561
0.918866 0.677414 0.062561
0.062561 0.761243 0.062561
0.062561 0.761243 0.062561
0.062561 0.761243 0.062561
0.062561 0.761243 0.062561
0.062561 0.761232 0.062561
0.062561 0.761204 0.062561
0.062561 0.761169 0.062561
0.062561 0.761114 0.062561
0.062561 0.761026 0.062561
0.062561 0.760885 0.062561
0.062561 0.760633 0.062561
0.062561 0.760221 0.062561
0.062561 0.759621 0.062561
0.251016 0.758833 0.062561
0.417640 0.757847 0.062561
0.531924 0.756652 0.062561
0.628183 0.755246 0.062561
0.714328 0.753636 0.062561
0.793312 0.751837 0.062561
0.859937 0.750058 0.062561
0.910211 0.748546 0.062561
0.918866 0.747340 0.062561
0.918866 0.746441 0.062561
0.918866 0.745822 0.062561
0.918866 0.745434 0.062561
0.918866 0.745218 0.062561
0.918866 0.745102 0.062561
0.918866 0.745014 0.062561
0.918866 0.744990 0.062561
0.918866 0.744990 0.062561
0.918866 0.744990 0.062561
0.918866 0.744990 0.062561
0.062561 0.823974 0.062561
0.062561 0.823974 0.062561
0.062561 0.823974 0.062561
0.062561 0.823974 0.062561
0.062561 0.823963 0.062561
0.062561 0.823940 0.062561
0.062561 0.823909 0.062561
0.062561 0.823860 0.062561
0.062561 0.823783 0.062561
0.062561 0.823660 0.062561
0.062561 0.823440 0.062561
0.062561 0.823079 0.062561
0.062561 0.822554 0.062561
0.062561 0.821865 0.062561
0.352593 0.821003 0.062561
0.491145 0.819959 0.062561
0.598009 0.818731 0.062561
0.690286 0.817326 0.062561
0.773294 0.815757 0.062561
0.842533 0.814206 0.062561
0.894436 0.812890 0.062561
0.918866 0.811840 0.062561
0.918866 0.811058 0.062561
0.918866 0.810519 0.062561
0.918866 0.810183 0.062561
0.918866 0.809994 0.062561
0.918866 0.809893 0.062561
0.918866 0.809818 0.062561
0.918866 0.809796 0.062561
0.918866 0.809796 0.062561
0.918866 0.809796 0.062561
0.918866 0.809796 0.062561
0.062561 0.878749 0.062561
0.062561 0.878749 0.062561
0.062561 0.878749 0.062561
0.062561 0.878749 0.062561
0.062561 0.878739 0.062561
0.062561 0.878718 0.062561
0.062561 0.878690 0.062561
0.062561 0.878647 0.062561
0.062561 0.878578 0.062561
0.062561 0.878467 0.062561
0.062561 0.878270 0.062561
0.062561 0.877946 0.062561
0.062561 0.877475 0.062561
0.062561 0.876858 0.062561
0.259830 0.876084 0.062561
0.444606 0.875148 0.062561
0.565583 0.874049 0.062561
0.665155 0.872790 0.062561
0.752693 0.871386 0.062561
0.824782 0.869999 0.062561
0.878429 0.868821 0.062561
0.917461 0.867883 0.062561
0.918866 0.867184 0.062561
0.918866 0.866704 0.062561
0.918866 0.866402 0.062561
0.918866 0.866234 0.062561
0.918866 0.866144 0.062561
0.918866 0.866076 0.062561
0.918866 0.866057 0.062561
0.918866 0.866057 0.062561
0.918866 0.866057 0.062561
0.918866 0.866057 0.062561
0.062561 0.918866 0.062561
0.062561 0.918866 0.062561
0.062561 0.918866 0.062561
0.062561 0.918866 0.062561
0.062561 0.918866 0.062561
0.062561 0.918866 0.062561
0.062561 0.918866 0.062561
0.062561 0.918866 0.062561
0.062561 0.918866 0.062561
0.062561 0.918866 0.062561
0.062561 0.918866 0.062561
0.062561 0.918866 0.062561
0.062561 0.918866 0.062561
0.062561 0.918866 0.062561
0.063241 0.918525 0.062561
0.397757 0.917661 0.062561
0.535491 0.916646 0.062561
0.642566 0.915484 0.062561
0.734482 0.914188 0.062561
0.809237 0.912909 0.062561
0.864484 0.911824 0.062561
0.904521 0.910959 0.062561
0.918866 0.910315 0.062561
0.918866 0.909872 0.062561
0.918866 0.909595 0.062561
0.918866 0.909440 0.062561
0.918866 0.909357 0.062561
0.918866 0.909294 0.062561
0.918866 0.909277 0.062561
0.918866 0.909277 0.062561
0.918866 0.909277 0.062561
0.918866 0.909277 0.062561
0.062561 0.918866 0.062561
0.062561 0.918866 0.062561
0.062561 0.918866 0.062561
0.062561 0.918866 0.062561
0.062561 0.918866 0.062561
0.062561 0.918866 0.062561
0.062561 0.918866 0.062561
0.062561 0.918866 0.062561
0.062561 0.918866 0.062561
0.062561 0.918866 0.062561
0.062561 0.918866 0.062561
0.062561 0.918866 0.062561
0.062561 0.918866 0.062561
0.062561 0.918866 0.062561
0.062561 0.918866 0.062561
0.352722 0.918866 0.062561
0.509376 0.918866 0.062561
0.623600 0.918866 0.062561
0.719435 0.918866 0.062561
0.796503 0.918866 0.062561
0.853114 0.918866 0.062561
0.894001 0.918866 0.062561
0.918866 0.918866 0.062561
0.918866 0.918866 0.062561
0.918866 0.918866 0.062561
0.918866 0.918866 0.062561
0.918866 0.918866 0.062561
0.918866 0.918866 0.062561
0.918866 0.918866 0.062561
0.918866 0.918866 0.062561
0.918866 0.918866 0.062561
0.918866 0.918866 0.062561
0.062561 0.918866 0.062561
0.062561 0.918866 0.062561
0.062561 0.918866 0.062561
0.062561 0.918866 0.062561
0.062561 0.918866 0.062561
0.062561 0.918866 0.062561
0.062561 0.918866 0.062561
0.062561 0.918866 0.062561
0.062561 0.918866 0.062561
0.062561 0.918866 0.062561
0.062561 0.918866 0.062561
0.062561 0.918866 0.062561
0.062561 0.918866 0.062561
0.062561 0.918866 0.062561
0.062561 0.918866 0.062561
0.311897 0.918866 0.062561
0.488412 0.918866 0.062561
0.608847 0.918866 0.062561
0.707894 0.918866 0.062561
0.786806 0.918866 0.062561
0.844491 0.918866 0.062561
0.886040 0.918866 0.062561
0.914929 0.918866 0.062561
0.918866 0.918866 0.062561
0.918866 0.918866 0.062561
0.918866 0.918866 0.062561
0.918866 0.918866 0.062561
0.918866 0.918866 0.062561
0.918866 0.918866 0.062561
0.918866 0.918866 0.062561
0.918866 0.918866 0.062561
0.918866 0.918866 0.062561
0.062561 0.918866 0.062561
0.062561 0.918866 0.062561
0.062561 0.918866 0.062561
0.062561 0.918866 0.062561
0.062561 0.918866 0.062561
0.062561 0.918866 0.062561
0.062561 0.918866 0.062561
0.062561 0.918866 0.062561
0.062561 0.918866 0.062561
0.062561 0.918866 0.062561
0.062561 0.918866 0.062561
0.062561 0.918866 0.062561
0.062561 0.918866 0.062561
0.062561 0.918866 0.062561
0.062561 0.918866 0.062561
0.277831 0.918866 0.062561
0.473086 0.918866 0.062561
0.598346 0.918866 0.062561
0.699773 0.918866 0.062561
0.780022 0.918866 0.062561
0.838475 0.918866 0.062561
0.880495 0.918866 0.062561
0.909678 0.918866 0.062561
0.918866 0.918866 0.062561
0.918866 0.918866 0.062561
0.918866 0.918866 0.062561
0.918866 0.918866 0.062561
0.918866 0.918866 0.062561
0.918866 0.918866 0.062561
0.918866 0.918866 0.062561
0.918866 0.918866 0.062561
0.918866 0.918866 0.062561
0.062561 0.918866 0.062561
0.062561 0.918866 0.062561
0.062561 0.918866 0.062561
0.062561 0.918866 0.062561
0.062561 0.918866 0.062561
0.062561 0.918866 0.062561
0.062561 0.918866 0.062561
0.062561 0.918866 0.062561
0.062561 0.918866 0.062561
0.062561 0.918866 0.062561
0.062561 0.918866 0.062561
0.062561 0.918866 0.062561
0.062561 0.918866 0.062561
0.062561 0.918866 0.062561
0.062561 0.918866 0.062561
0.252581 0.918866 0.062561
0.463075 0.918866 0.062561
0.591623 0.918866 0.062561
0.694616 0.918866 0.062561
0.775730 0.918866 0.062561
0.834679 0.918866 0.062561
0.877000 0.918866 0.062561
0.906372 0.918866 0.062561
0.918866 0.918866 0.062561
0.918866 0.918866 0.062561
0.918866 0.918866 0.062561
0.918866 0.918866 0.062561
0.918866 0.918866 0.062561
0.918866 0.918866 0.062561
0.918866 0.918866 0.062561
0.918866 0.918866 0.062561
0.918866 0.918866 0.062561
0.062561 0.918866 0.062561
0.062561 0.918866 0.062561
0.062561 0.918866 0.062561
0.062561 0.918866 0.062561
0.062561 0.918866 0.062561
0.062561 0.918866 0.062561
0.062561 0.918866 0.062561
0.062561 0.918866 0.062561
0.062561 0.918866 0.062561
0.062561 0.918866 0.062561
0.062561 0.918866 0.062561
0.062561 0.918866 0.062561
0.062561 0.918866 0.062561
0.062561 0.918866 0.062561
0.062561 0.918866 0.062561
0.236481 0.918866 0.062561
0.457309 0.918866 0.062561
0.587803 0.918866 0.062561
0.691699 0.918866 0.062561
0.773309 0.918866 0.062561
0.832540 0.918866 0.062561
0.875033 0.918866 0.062561
0.904510 0.918866 0.062561
0.918866 0.918866 0.062561
0.918866 0.918866 0.062561
0.918866 0.918866 0.062561
0.918866 0.918866 0.062561
0.918866 0.918866 0.062561
0.918866 0.918866 0.062561
0.918866 0.918866 0.062561
0.918866 0.918866 0.062561
0.918866 0.918866 0.062561
0.062561 0.918866 0.062561
0.062561 0.918866 0.062561
0.062561 0.918866 0.062561
0.062561 0.918866 0.062561
0.062561 0.918866 0.062561
0.062561 0.918866 0.062561
0.062561 0.918866 0.062561
0.062561 0.918866 0.062561
0.062561 0.918866 0.062561
0.062561 0.918866 0.062561
0.062561 0.918866 0.062561
0.062561 0.918866 0.062561
0.062561 0.918866 0.062561
0.062561 0.918866 0.062561
0.062561 0.918866 0.062561
0.227125 0.918866 0.062561
0.454182 0.918866 0.062561
0.585746 0.918866 0.062561
0.690135 0.918866 0.062561
0.772012 0.918866 0.062561
0.831394 0.918866 0.062561
0.873980 0.918866 0.062561
0.903515 0.918866 0.062561
0.918866 0.918866 0.062561
0.918866 0.918866 0.062561
0.918866 0.918866 0.062561
0.918866 0.918866 0.062561
0.918866 0.918866 0.062561
0.918866 0.918866 0.062561
0.918866 0.918866 0.062561
0.918866 0.918866 0.062561
0.918866 0.918866 0.062561
0.062561 0.918866 0.062561
0.062561 0.918866 0.062561
0.062561 0.918866 0.062561
0.062561 0.918866 0.062561
0.062561 0.918866 0.062561
0.062561 0.918866 0.062561
0.062561 0.918866 0.062561
0.062561 0.918866 0.062561
0.062561 0.918866 0.062561
0.062561 0.918866 0.062561
0.062561 0.918866 0.062561
0.062561 0.918866 0.062561
0.062561 0.918866 0.062561
0.062561 0.918866 0.062561
0.062561 0.918866 0.062561
0.219662 0.918866 0.062561
0.451805 0.918866 0.062561
0.584192 0.918866 0.062561
0.688953 0.918866 0.062561
0.771034 0.918866 0.062561
