lib/data/lut_sample/AlexaV3_EI0800_LogC2Video_Rec709_LL_aftereffects3d.cube
# Alexa conversion LUT, logc2video, itu709. Legal in/legal out.
# created by alexalutconv (2.09)
LUT_3D_SIZE 5
DOMAIN_MIN 0.000000 0.000000 0.000000
DOMAIN_MAX 0.903226 0.903226 0.903226
0.022222 0.062561 0.062561
0.165117 0.062561 0.063460
0.594104 0.062561 0.086045
0.918866 0.062561 0.147893
0.918866 0.062561 0.157656
0.062561 0.155414 0.062561
0.144857 0.153702 0.062561
0.591764 0.096094 0.075864
0.918866 0.062561 0.141034
0.918866 0.062561 0.151465
0.062561 0.561976 0.062561
0.062561 0.561761 0.062561
0.527020 0.556308 0.062561
0.918866 0.538419 0.062561
0.918866 0.534340 0.062561
0.062561 0.918866 0.062561
0.062561 0.918866 0.062561
0.062561 0.918866 0.062561
0.894001 0.918866 0.062561
0.918866 0.918866 0.062561
0.062561 0.918866 0.062561
0.062561 0.918866 0.062561
0.062561 0.918866 0.062561
0.872963 0.918866 0.062561
0.918866 0.918866 0.062561
0.062561 0.062561 0.146381
0.161203 0.062561 0.146974
0.593616 0.062561 0.160796
0.918866 0.062561 0.195697
0.918866 0.062561 0.202193
0.062561 0.142012 0.139409
0.140046 0.140046 0.140046
0.591273 0.075305 0.154797
0.918866 0.062561 0.191318
0.918866 0.062561 0.198038
0.062561 0.560382 0.062561
0.062561 0.560166 0.062561
0.526424 0.554688 0.062561
0.918866 0.536708 0.062561
0.918866 0.532606 0.062561
0.062561 0.918866 0.062561
0.062561 0.918866 0.062561
0.062561 0.918866 0.062561
0.893755 0.918866 0.062561
0.918866 0.918866 0.062561
0.062561 0.918866 0.062561
0.062561 0.918866 0.062561
0.062561 0.918866 0.062561
0.872708 0.918866 0.062561
0.918866 0.918866 0.062561
0.062561 0.062561 0.532069
0.062561 0.062561 0.532144
0.581144 0.062561 0.534029
0.918866 0.062561 0.539929
0.918866 0.062561 0.541215
0.062561 0.062561 0.531215
0.062561 0.062561 0.531290
0.578714 0.062561 0.533181
0.918866 0.062561 0.539096
0.918866 0.062561 0.540386
0.062561 0.517600 0.508980
0.062561 0.517354 0.509061
0.511089 0.511089 0.511089
0.918866 0.490350 0.517428
0.918866 0.485577 0.518808
0.062561 0.918866 0.424892
0.062561 0.918866 0.425001
0.062561 0.918866 0.427729
0.887549 0.918866 0.436186
0.918866 0.918866 0.438014
0.062561 0.918866 0.402214
0.062561 0.918866 0.402334
0.062561 0.918866 0.405316
0.866246 0.918866 0.414534
0.918866 0.918866 0.416521
0.062561 0.062561 0.902433
0.062561 0.062561 0.902464
0.538339 0.062561 0.903244
0.918866 0.062561 0.905708
0.918866 0.062561 0.906249
0.062561 0.062561 0.902082
0.062561 0.062561 0.902113
0.535578 0.062561 0.902893
0.918866 0.062561 0.905358
0.918866 0.062561 0.905900
0.062561 0.310351 0.893163
0.062561 0.309779 0.893194
0.456592 0.294818 0.893988
0.918866 0.236615 0.896495
0.918866 0.220259 0.897046
0.062561 0.878267 0.863868
0.062561 0.878166 0.863902
0.062561 0.875601 0.864741
0.867392 0.867392 0.867392
0.918866 0.865564 0.867974
0.062561 0.918866 0.857180
0.062561 0.918866 0.857214
0.062561 0.918866 0.858064
0.845217 0.918866 0.860750
0.918866 0.918866 0.861339
0.062561 0.062561 0.918866
0.062561 0.062561 0.918866
0.528106 0.062561 0.918866
0.918866 0.062561 0.918866
0.918866 0.062561 0.918866
0.062561 0.062561 0.918866
0.062561 0.062561 0.918866
0.525255 0.062561 0.918866
0.918866 0.062561 0.918866
0.918866 0.062561 0.918866
0.062561 0.213842 0.918866
0.062561 0.212803 0.918866
0.443030 0.183536 0.918866
0.918866 0.062561 0.918866
0.918866 0.062561 0.918866
0.062561 0.864901 0.918866
0.062561 0.864797 0.918866
0.062561 0.862164 0.918866
0.862839 0.853736 0.918866
0.918866 0.851858 0.918866
0.062561 0.918866 0.915138
0.062561 0.918866 0.915169
0.062561 0.918866 0.915931
0.840461 0.918866 0.918337
0.918866 0.918866 0.918866
