lib/data/lut_sample/hoge.1dlut.cube
# This 3DLUT data was created by TY-LUT creation tool
TITLE "Puri_Chan"
DOMAIN_MIN -0.1 -0.1 -0.1
DOMAIN_MAX 1.4 1.4 1.4
LUT_1D_SIZE 1024

0.0000000000e+00 0.0000000000e+00 0.0000000000e+00
9.7751710655e-04 9.7751710655e-04 9.7751710655e-04
1.9550342131e-03 1.9550342131e-03 1.9550342131e-03
2.9325513196e-03 2.9325513196e-03 2.9325513196e-03
3.9100684262e-03 3.9100684262e-03 3.9100684262e-03
4.8875855327e-03 4.8875855327e-03 4.8875855327e-03
5.8651026393e-03 5.8651026393e-03 5.8651026393e-03
6.8426197458e-03 6.8426197458e-03 6.8426197458e-03
7.8201368524e-03 7.8201368524e-03 7.8201368524e-03
8.7976539589e-03 8.7976539589e-03 8.7976539589e-03
9.7751710655e-03 9.7751710655e-03 9.7751710655e-03
1.0752688172e-02 1.0752688172e-02 1.0752688172e-02
1.1730205279e-02 1.1730205279e-02 1.1730205279e-02
1.2707722385e-02 1.2707722385e-02 1.2707722385e-02
1.3685239492e-02 1.3685239492e-02 1.3685239492e-02
1.4662756598e-02 1.4662756598e-02 1.4662756598e-02
1.5640273705e-02 1.5640273705e-02 1.5640273705e-02
1.6617790811e-02 1.6617790811e-02 1.6617790811e-02
1.7595307918e-02 1.7595307918e-02 1.7595307918e-02
1.8572825024e-02 1.8572825024e-02 1.8572825024e-02
1.9550342131e-02 1.9550342131e-02 1.9550342131e-02
2.0527859238e-02 2.0527859238e-02 2.0527859238e-02
2.1505376344e-02 2.1505376344e-02 2.1505376344e-02
2.2482893451e-02 2.2482893451e-02 2.2482893451e-02
2.3460410557e-02 2.3460410557e-02 2.3460410557e-02
2.4437927664e-02 2.4437927664e-02 2.4437927664e-02
2.5415444770e-02 2.5415444770e-02 2.5415444770e-02
2.6392961877e-02 2.6392961877e-02 2.6392961877e-02
2.7370478983e-02 2.7370478983e-02 2.7370478983e-02
2.8347996090e-02 2.8347996090e-02 2.8347996090e-02
2.9325513196e-02 2.9325513196e-02 2.9325513196e-02
3.0303030303e-02 3.0303030303e-02 3.0303030303e-02
3.1280547410e-02 3.1280547410e-02 3.1280547410e-02
3.2258064516e-02 3.2258064516e-02 3.2258064516e-02
3.3235581623e-02 3.3235581623e-02 3.3235581623e-02
3.4213098729e-02 3.4213098729e-02 3.4213098729e-02
3.5190615836e-02 3.5190615836e-02 3.5190615836e-02
3.6168132942e-02 3.6168132942e-02 3.6168132942e-02
3.7145650049e-02 3.7145650049e-02 3.7145650049e-02
3.8123167155e-02 3.8123167155e-02 3.8123167155e-02
3.9100684262e-02 3.9100684262e-02 3.9100684262e-02
4.0078201369e-02 4.0078201369e-02 4.0078201369e-02
4.1055718475e-02 4.1055718475e-02 4.1055718475e-02
4.2033235582e-02 4.2033235582e-02 4.2033235582e-02
4.3010752688e-02 4.3010752688e-02 4.3010752688e-02
4.3988269795e-02 4.3988269795e-02 4.3988269795e-02
4.4965786901e-02 4.4965786901e-02 4.4965786901e-02
4.5943304008e-02 4.5943304008e-02 4.5943304008e-02
4.6920821114e-02 4.6920821114e-02 4.6920821114e-02
4.7898338221e-02 4.7898338221e-02 4.7898338221e-02
4.8875855327e-02 4.8875855327e-02 4.8875855327e-02
4.9853372434e-02 4.9853372434e-02 4.9853372434e-02
5.0830889541e-02 5.0830889541e-02 5.0830889541e-02
5.1808406647e-02 5.1808406647e-02 5.1808406647e-02
5.2785923754e-02 5.2785923754e-02 5.2785923754e-02
5.3763440860e-02 5.3763440860e-02 5.3763440860e-02
5.4740957967e-02 5.4740957967e-02 5.4740957967e-02
5.5718475073e-02 5.5718475073e-02 5.5718475073e-02
5.6695992180e-02 5.6695992180e-02 5.6695992180e-02
5.7673509286e-02 5.7673509286e-02 5.7673509286e-02
5.8651026393e-02 5.8651026393e-02 5.8651026393e-02
5.9628543500e-02 5.9628543500e-02 5.9628543500e-02
6.0606060606e-02 6.0606060606e-02 6.0606060606e-02
6.1583577713e-02 6.1583577713e-02 6.1583577713e-02
6.2561094819e-02 6.2561094819e-02 6.2561094819e-02
6.3538611926e-02 6.3538611926e-02 6.3538611926e-02
6.4516129032e-02 6.4516129032e-02 6.4516129032e-02
6.5493646139e-02 6.5493646139e-02 6.5493646139e-02
6.6471163245e-02 6.6471163245e-02 6.6471163245e-02
6.7448680352e-02 6.7448680352e-02 6.7448680352e-02
6.8426197458e-02 6.8426197458e-02 6.8426197458e-02
6.9403714565e-02 6.9403714565e-02 6.9403714565e-02
7.0381231672e-02 7.0381231672e-02 7.0381231672e-02
7.1358748778e-02 7.1358748778e-02 7.1358748778e-02
7.2336265885e-02 7.2336265885e-02 7.2336265885e-02
7.3313782991e-02 7.3313782991e-02 7.3313782991e-02
7.4291300098e-02 7.4291300098e-02 7.4291300098e-02
7.5268817204e-02 7.5268817204e-02 7.5268817204e-02
7.6246334311e-02 7.6246334311e-02 7.6246334311e-02
7.7223851417e-02 7.7223851417e-02 7.7223851417e-02
7.8201368524e-02 7.8201368524e-02 7.8201368524e-02
7.9178885630e-02 7.9178885630e-02 7.9178885630e-02
8.0156402737e-02 8.0156402737e-02 8.0156402737e-02
8.1133919844e-02 8.1133919844e-02 8.1133919844e-02
8.2111436950e-02 8.2111436950e-02 8.2111436950e-02
8.3088954057e-02 8.3088954057e-02 8.3088954057e-02
8.4066471163e-02 8.4066471163e-02 8.4066471163e-02
8.5043988270e-02 8.5043988270e-02 8.5043988270e-02
8.6021505376e-02 8.6021505376e-02 8.6021505376e-02
8.6999022483e-02 8.6999022483e-02 8.6999022483e-02
8.7976539589e-02 8.7976539589e-02 8.7976539589e-02
8.8954056696e-02 8.8954056696e-02 8.8954056696e-02
8.9931573803e-02 8.9931573803e-02 8.9931573803e-02
9.0909090909e-02 9.0909090909e-02 9.0909090909e-02
9.1886608016e-02 9.1886608016e-02 9.1886608016e-02
9.2864125122e-02 9.2864125122e-02 9.2864125122e-02
9.3841642229e-02 9.3841642229e-02 9.3841642229e-02
9.4819159335e-02 9.4819159335e-02 9.4819159335e-02
9.5796676442e-02 9.5796676442e-02 9.5796676442e-02
9.6774193548e-02 9.6774193548e-02 9.6774193548e-02
9.7751710655e-02 9.7751710655e-02 9.7751710655e-02
9.8729227761e-02 9.8729227761e-02 9.8729227761e-02
9.9706744868e-02 9.9706744868e-02 9.9706744868e-02
1.0068426197e-01 1.0068426197e-01 1.0068426197e-01
1.0166177908e-01 1.0166177908e-01 1.0166177908e-01
1.0263929619e-01 1.0263929619e-01 1.0263929619e-01
1.0361681329e-01 1.0361681329e-01 1.0361681329e-01
1.0459433040e-01 1.0459433040e-01 1.0459433040e-01
1.0557184751e-01 1.0557184751e-01 1.0557184751e-01
1.0654936461e-01 1.0654936461e-01 1.0654936461e-01
1.0752688172e-01 1.0752688172e-01 1.0752688172e-01
1.0850439883e-01 1.0850439883e-01 1.0850439883e-01
1.0948191593e-01 1.0948191593e-01 1.0948191593e-01
1.1045943304e-01 1.1045943304e-01 1.1045943304e-01
1.1143695015e-01 1.1143695015e-01 1.1143695015e-01
1.1241446725e-01 1.1241446725e-01 1.1241446725e-01
1.1339198436e-01 1.1339198436e-01 1.1339198436e-01
1.1436950147e-01 1.1436950147e-01 1.1436950147e-01
1.1534701857e-01 1.1534701857e-01 1.1534701857e-01
1.1632453568e-01 1.1632453568e-01 1.1632453568e-01
1.1730205279e-01 1.1730205279e-01 1.1730205279e-01
1.1827956989e-01 1.1827956989e-01 1.1827956989e-01
1.1925708700e-01 1.1925708700e-01 1.1925708700e-01
1.2023460411e-01 1.2023460411e-01 1.2023460411e-01
1.2121212121e-01 1.2121212121e-01 1.2121212121e-01
1.2218963832e-01 1.2218963832e-01 1.2218963832e-01
1.2316715543e-01 1.2316715543e-01 1.2316715543e-01
1.2414467253e-01 1.2414467253e-01 1.2414467253e-01
1.2512218964e-01 1.2512218964e-01 1.2512218964e-01
1.2609970674e-01 1.2609970674e-01 1.2609970674e-01
1.2707722385e-01 1.2707722385e-01 1.2707722385e-01
1.2805474096e-01 1.2805474096e-01 1.2805474096e-01
1.2903225806e-01 1.2903225806e-01 1.2903225806e-01
1.3000977517e-01 1.3000977517e-01 1.3000977517e-01
1.3098729228e-01 1.3098729228e-01 1.3098729228e-01
1.3196480938e-01 1.3196480938e-01 1.3196480938e-01
1.3294232649e-01 1.3294232649e-01 1.3294232649e-01
1.3391984360e-01 1.3391984360e-01 1.3391984360e-01
1.3489736070e-01 1.3489736070e-01 1.3489736070e-01
1.3587487781e-01 1.3587487781e-01 1.3587487781e-01
1.3685239492e-01 1.3685239492e-01 1.3685239492e-01
1.3782991202e-01 1.3782991202e-01 1.3782991202e-01
1.3880742913e-01 1.3880742913e-01 1.3880742913e-01
1.3978494624e-01 1.3978494624e-01 1.3978494624e-01
1.4076246334e-01 1.4076246334e-01 1.4076246334e-01
1.4173998045e-01 1.4173998045e-01 1.4173998045e-01
1.4271749756e-01 1.4271749756e-01 1.4271749756e-01
1.4369501466e-01 1.4369501466e-01 1.4369501466e-01
1.4467253177e-01 1.4467253177e-01 1.4467253177e-01
1.4565004888e-01 1.4565004888e-01 1.4565004888e-01
1.4662756598e-01 1.4662756598e-01 1.4662756598e-01
1.4760508309e-01 1.4760508309e-01 1.4760508309e-01
1.4858260020e-01 1.4858260020e-01 1.4858260020e-01
1.4956011730e-01 1.4956011730e-01 1.4956011730e-01
1.5053763441e-01 1.5053763441e-01 1.5053763441e-01
1.5151515152e-01 1.5151515152e-01 1.5151515152e-01
1.5249266862e-01 1.5249266862e-01 1.5249266862e-01
1.5347018573e-01 1.5347018573e-01 1.5347018573e-01
1.5444770283e-01 1.5444770283e-01 1.5444770283e-01
1.5542521994e-01 1.5542521994e-01 1.5542521994e-01
1.5640273705e-01 1.5640273705e-01 1.5640273705e-01
1.5738025415e-01 1.5738025415e-01 1.5738025415e-01
1.5835777126e-01 1.5835777126e-01 1.5835777126e-01
1.5933528837e-01 1.5933528837e-01 1.5933528837e-01
1.6031280547e-01 1.6031280547e-01 1.6031280547e-01
1.6129032258e-01 1.6129032258e-01 1.6129032258e-01
1.6226783969e-01 1.6226783969e-01 1.6226783969e-01
1.6324535679e-01 1.6324535679e-01 1.6324535679e-01
1.6422287390e-01 1.6422287390e-01 1.6422287390e-01
1.6520039101e-01 1.6520039101e-01 1.6520039101e-01
1.6617790811e-01 1.6617790811e-01 1.6617790811e-01
1.6715542522e-01 1.6715542522e-01 1.6715542522e-01
1.6813294233e-01 1.6813294233e-01 1.6813294233e-01
1.6911045943e-01 1.6911045943e-01 1.6911045943e-01
1.7008797654e-01 1.7008797654e-01 1.7008797654e-01
1.7106549365e-01 1.7106549365e-01 1.7106549365e-01
1.7204301075e-01 1.7204301075e-01 1.7204301075e-01
1.7302052786e-01 1.7302052786e-01 1.7302052786e-01
1.7399804497e-01 1.7399804497e-01 1.7399804497e-01
1.7497556207e-01 1.7497556207e-01 1.7497556207e-01
1.7595307918e-01 1.7595307918e-01 1.7595307918e-01
1.7693059629e-01 1.7693059629e-01 1.7693059629e-01
1.7790811339e-01 1.7790811339e-01 1.7790811339e-01
1.7888563050e-01 1.7888563050e-01 1.7888563050e-01
1.7986314761e-01 1.7986314761e-01 1.7986314761e-01
1.8084066471e-01 1.8084066471e-01 1.8084066471e-01
1.8181818182e-01 1.8181818182e-01 1.8181818182e-01
1.8279569892e-01 1.8279569892e-01 1.8279569892e-01
1.8377321603e-01 1.8377321603e-01 1.8377321603e-01
1.8475073314e-01 1.8475073314e-01 1.8475073314e-01
1.8572825024e-01 1.8572825024e-01 1.8572825024e-01
1.8670576735e-01 1.8670576735e-01 1.8670576735e-01
1.8768328446e-01 1.8768328446e-01 1.8768328446e-01
1.8866080156e-01 1.8866080156e-01 1.8866080156e-01
1.8963831867e-01 1.8963831867e-01 1.8963831867e-01
1.9061583578e-01 1.9061583578e-01 1.9061583578e-01
1.9159335288e-01 1.9159335288e-01 1.9159335288e-01
1.9257086999e-01 1.9257086999e-01 1.9257086999e-01
1.9354838710e-01 1.9354838710e-01 1.9354838710e-01
1.9452590420e-01 1.9452590420e-01 1.9452590420e-01
1.9550342131e-01 1.9550342131e-01 1.9550342131e-01
1.9648093842e-01 1.9648093842e-01 1.9648093842e-01
1.9745845552e-01 1.9745845552e-01 1.9745845552e-01
1.9843597263e-01 1.9843597263e-01 1.9843597263e-01
1.9941348974e-01 1.9941348974e-01 1.9941348974e-01
2.0039100684e-01 2.0039100684e-01 2.0039100684e-01
2.0136852395e-01 2.0136852395e-01 2.0136852395e-01
2.0234604106e-01 2.0234604106e-01 2.0234604106e-01
2.0332355816e-01 2.0332355816e-01 2.0332355816e-01
2.0430107527e-01 2.0430107527e-01 2.0430107527e-01
2.0527859238e-01 2.0527859238e-01 2.0527859238e-01
2.0625610948e-01 2.0625610948e-01 2.0625610948e-01
2.0723362659e-01 2.0723362659e-01 2.0723362659e-01
2.0821114370e-01 2.0821114370e-01 2.0821114370e-01
2.0918866080e-01 2.0918866080e-01 2.0918866080e-01
2.1016617791e-01 2.1016617791e-01 2.1016617791e-01
2.1114369501e-01 2.1114369501e-01 2.1114369501e-01
2.1212121212e-01 2.1212121212e-01 2.1212121212e-01
2.1309872923e-01 2.1309872923e-01 2.1309872923e-01
2.1407624633e-01 2.1407624633e-01 2.1407624633e-01
2.1505376344e-01 2.1505376344e-01 2.1505376344e-01
2.1603128055e-01 2.1603128055e-01 2.1603128055e-01
2.1700879765e-01 2.1700879765e-01 2.1700879765e-01
2.1798631476e-01 2.1798631476e-01 2.1798631476e-01
2.1896383187e-01 2.1896383187e-01 2.1896383187e-01
2.1994134897e-01 2.1994134897e-01 2.1994134897e-01
2.2091886608e-01 2.2091886608e-01 2.2091886608e-01
2.2189638319e-01 2.2189638319e-01 2.2189638319e-01
2.2287390029e-01 2.2287390029e-01 2.2287390029e-01
2.2385141740e-01 2.2385141740e-01 2.2385141740e-01
2.2482893451e-01 2.2482893451e-01 2.2482893451e-01
2.2580645161e-01 2.2580645161e-01 2.2580645161e-01
2.2678396872e-01 2.2678396872e-01 2.2678396872e-01
2.2776148583e-01 2.2776148583e-01 2.2776148583e-01
2.2873900293e-01 2.2873900293e-01 2.2873900293e-01
2.2971652004e-01 2.2971652004e-01 2.2971652004e-01
2.3069403715e-01 2.3069403715e-01 2.3069403715e-01
2.3167155425e-01 2.3167155425e-01 2.3167155425e-01
2.3264907136e-01 2.3264907136e-01 2.3264907136e-01
2.3362658847e-01 2.3362658847e-01 2.3362658847e-01
2.3460410557e-01 2.3460410557e-01 2.3460410557e-01
2.3558162268e-01 2.3558162268e-01 2.3558162268e-01
2.3655913978e-01 2.3655913978e-01 2.3655913978e-01
2.3753665689e-01 2.3753665689e-01 2.3753665689e-01
2.3851417400e-01 2.3851417400e-01 2.3851417400e-01
2.3949169110e-01 2.3949169110e-01 2.3949169110e-01
2.4046920821e-01 2.4046920821e-01 2.4046920821e-01
2.4144672532e-01 2.4144672532e-01 2.4144672532e-01
2.4242424242e-01 2.4242424242e-01 2.4242424242e-01
2.4340175953e-01 2.4340175953e-01 2.4340175953e-01
2.4437927664e-01 2.4437927664e-01 2.4437927664e-01
2.4535679374e-01 2.4535679374e-01 2.4535679374e-01
2.4633431085e-01 2.4633431085e-01 2.4633431085e-01
2.4731182796e-01 2.4731182796e-01 2.4731182796e-01
2.4828934506e-01 2.4828934506e-01 2.4828934506e-01
2.4926686217e-01 2.4926686217e-01 2.4926686217e-01
2.5024437928e-01 2.5024437928e-01 2.5024437928e-01
2.5122189638e-01 2.5122189638e-01 2.5122189638e-01
2.5219941349e-01 2.5219941349e-01 2.5219941349e-01
2.5317693060e-01 2.5317693060e-01 2.5317693060e-01
2.5415444770e-01 2.5415444770e-01 2.5415444770e-01
2.5513196481e-01 2.5513196481e-01 2.5513196481e-01
2.5610948192e-01 2.5610948192e-01 2.5610948192e-01
2.5708699902e-01 2.5708699902e-01 2.5708699902e-01
2.5806451613e-01 2.5806451613e-01 2.5806451613e-01
2.5904203324e-01 2.5904203324e-01 2.5904203324e-01
2.6001955034e-01 2.6001955034e-01 2.6001955034e-01
2.6099706745e-01 2.6099706745e-01 2.6099706745e-01
2.6197458456e-01 2.6197458456e-01 2.6197458456e-01
2.6295210166e-01 2.6295210166e-01 2.6295210166e-01
2.6392961877e-01 2.6392961877e-01 2.6392961877e-01
2.6490713587e-01 2.6490713587e-01 2.6490713587e-01
2.6588465298e-01 2.6588465298e-01 2.6588465298e-01
2.6686217009e-01 2.6686217009e-01 2.6686217009e-01
2.6783968719e-01 2.6783968719e-01 2.6783968719e-01
2.6881720430e-01 2.6881720430e-01 2.6881720430e-01
2.6979472141e-01 2.6979472141e-01 2.6979472141e-01
2.7077223851e-01 2.7077223851e-01 2.7077223851e-01
2.7174975562e-01 2.7174975562e-01 2.7174975562e-01
2.7272727273e-01 2.7272727273e-01 2.7272727273e-01
2.7370478983e-01 2.7370478983e-01 2.7370478983e-01
2.7468230694e-01 2.7468230694e-01 2.7468230694e-01
2.7565982405e-01 2.7565982405e-01 2.7565982405e-01
2.7663734115e-01 2.7663734115e-01 2.7663734115e-01
2.7761485826e-01 2.7761485826e-01 2.7761485826e-01
2.7859237537e-01 2.7859237537e-01 2.7859237537e-01
2.7956989247e-01 2.7956989247e-01 2.7956989247e-01
2.8054740958e-01 2.8054740958e-01 2.8054740958e-01
2.8152492669e-01 2.8152492669e-01 2.8152492669e-01
2.8250244379e-01 2.8250244379e-01 2.8250244379e-01
2.8347996090e-01 2.8347996090e-01 2.8347996090e-01
2.8445747801e-01 2.8445747801e-01 2.8445747801e-01
2.8543499511e-01 2.8543499511e-01 2.8543499511e-01
2.8641251222e-01 2.8641251222e-01 2.8641251222e-01
2.8739002933e-01 2.8739002933e-01 2.8739002933e-01
2.8836754643e-01 2.8836754643e-01 2.8836754643e-01
2.8934506354e-01 2.8934506354e-01 2.8934506354e-01
2.9032258065e-01 2.9032258065e-01 2.9032258065e-01
2.9130009775e-01 2.9130009775e-01 2.9130009775e-01
2.9227761486e-01 2.9227761486e-01 2.9227761486e-01
2.9325513196e-01 2.9325513196e-01 2.9325513196e-01
2.9423264907e-01 2.9423264907e-01 2.9423264907e-01
2.9521016618e-01 2.9521016618e-01 2.9521016618e-01
2.9618768328e-01 2.9618768328e-01 2.9618768328e-01
2.9716520039e-01 2.9716520039e-01 2.9716520039e-01
2.9814271750e-01 2.9814271750e-01 2.9814271750e-01
2.9912023460e-01 2.9912023460e-01 2.9912023460e-01
3.0009775171e-01 3.0009775171e-01 3.0009775171e-01
3.0107526882e-01 3.0107526882e-01 3.0107526882e-01
3.0205278592e-01 3.0205278592e-01 3.0205278592e-01
3.0303030303e-01 3.0303030303e-01 3.0303030303e-01
3.0400782014e-01 3.0400782014e-01 3.0400782014e-01
3.0498533724e-01 3.0498533724e-01 3.0498533724e-01
3.0596285435e-01 3.0596285435e-01 3.0596285435e-01
3.0694037146e-01 3.0694037146e-01 3.0694037146e-01
3.0791788856e-01 3.0791788856e-01 3.0791788856e-01
3.0889540567e-01 3.0889540567e-01 3.0889540567e-01
3.0987292278e-01 3.0987292278e-01 3.0987292278e-01
3.1085043988e-01 3.1085043988e-01 3.1085043988e-01
3.1182795699e-01 3.1182795699e-01 3.1182795699e-01
3.1280547410e-01 3.1280547410e-01 3.1280547410e-01
3.1378299120e-01 3.1378299120e-01 3.1378299120e-01
3.1476050831e-01 3.1476050831e-01 3.1476050831e-01
3.1573802542e-01 3.1573802542e-01 3.1573802542e-01
3.1671554252e-01 3.1671554252e-01 3.1671554252e-01
3.1769305963e-01 3.1769305963e-01 3.1769305963e-01
3.1867057674e-01 3.1867057674e-01 3.1867057674e-01
3.1964809384e-01 3.1964809384e-01 3.1964809384e-01
3.2062561095e-01 3.2062561095e-01 3.2062561095e-01
3.2160312805e-01 3.2160312805e-01 3.2160312805e-01
3.2258064516e-01 3.2258064516e-01 3.2258064516e-01
3.2355816227e-01 3.2355816227e-01 3.2355816227e-01
3.2453567937e-01 3.2453567937e-01 3.2453567937e-01
3.2551319648e-01 3.2551319648e-01 3.2551319648e-01
3.2649071359e-01 3.2649071359e-01 3.2649071359e-01
3.2746823069e-01 3.2746823069e-01 3.2746823069e-01
3.2844574780e-01 3.2844574780e-01 3.2844574780e-01
3.2942326491e-01 3.2942326491e-01 3.2942326491e-01
3.3040078201e-01 3.3040078201e-01 3.3040078201e-01
3.3137829912e-01 3.3137829912e-01 3.3137829912e-01
3.3235581623e-01 3.3235581623e-01 3.3235581623e-01
3.3333333333e-01 3.3333333333e-01 3.3333333333e-01
3.3431085044e-01 3.3431085044e-01 3.3431085044e-01
3.3528836755e-01 3.3528836755e-01 3.3528836755e-01
3.3626588465e-01 3.3626588465e-01 3.3626588465e-01
3.3724340176e-01 3.3724340176e-01 3.3724340176e-01
3.3822091887e-01 3.3822091887e-01 3.3822091887e-01
3.3919843597e-01 3.3919843597e-01 3.3919843597e-01
3.4017595308e-01 3.4017595308e-01 3.4017595308e-01
3.4115347019e-01 3.4115347019e-01 3.4115347019e-01
3.4213098729e-01 3.4213098729e-01 3.4213098729e-01
3.4310850440e-01 3.4310850440e-01 3.4310850440e-01
3.4408602151e-01 3.4408602151e-01 3.4408602151e-01
3.4506353861e-01 3.4506353861e-01 3.4506353861e-01
3.4604105572e-01 3.4604105572e-01 3.4604105572e-01
3.4701857283e-01 3.4701857283e-01 3.4701857283e-01
3.4799608993e-01 3.4799608993e-01 3.4799608993e-01
3.4897360704e-01 3.4897360704e-01 3.4897360704e-01
3.4995112414e-01 3.4995112414e-01 3.4995112414e-01
3.5092864125e-01 3.5092864125e-01 3.5092864125e-01
3.5190615836e-01 3.5190615836e-01 3.5190615836e-01
3.5288367546e-01 3.5288367546e-01 3.5288367546e-01
3.5386119257e-01 3.5386119257e-01 3.5386119257e-01
3.5483870968e-01 3.5483870968e-01 3.5483870968e-01
3.5581622678e-01 3.5581622678e-01 3.5581622678e-01
3.5679374389e-01 3.5679374389e-01 3.5679374389e-01
3.5777126100e-01 3.5777126100e-01 3.5777126100e-01
3.5874877810e-01 3.5874877810e-01 3.5874877810e-01
3.5972629521e-01 3.5972629521e-01 3.5972629521e-01
3.6070381232e-01 3.6070381232e-01 3.6070381232e-01
3.6168132942e-01 3.6168132942e-01 3.6168132942e-01
3.6265884653e-01 3.6265884653e-01 3.6265884653e-01
3.6363636364e-01 3.6363636364e-01 3.6363636364e-01
3.6461388074e-01 3.6461388074e-01 3.6461388074e-01
3.6559139785e-01 3.6559139785e-01 3.6559139785e-01
3.6656891496e-01 3.6656891496e-01 3.6656891496e-01
3.6754643206e-01 3.6754643206e-01 3.6754643206e-01
3.6852394917e-01 3.6852394917e-01 3.6852394917e-01
3.6950146628e-01 3.6950146628e-01 3.6950146628e-01
3.7047898338e-01 3.7047898338e-01 3.7047898338e-01
3.7145650049e-01 3.7145650049e-01 3.7145650049e-01
3.7243401760e-01 3.7243401760e-01 3.7243401760e-01
3.7341153470e-01 3.7341153470e-01 3.7341153470e-01
3.7438905181e-01 3.7438905181e-01 3.7438905181e-01
3.7536656891e-01 3.7536656891e-01 3.7536656891e-01
3.7634408602e-01 3.7634408602e-01 3.7634408602e-01
3.7732160313e-01 3.7732160313e-01 3.7732160313e-01
3.7829912023e-01 3.7829912023e-01 3.7829912023e-01
3.7927663734e-01 3.7927663734e-01 3.7927663734e-01
3.8025415445e-01 3.8025415445e-01 3.8025415445e-01
3.8123167155e-01 3.8123167155e-01 3.8123167155e-01
3.8220918866e-01 3.8220918866e-01 3.8220918866e-01
3.8318670577e-01 3.8318670577e-01 3.8318670577e-01
3.8416422287e-01 3.8416422287e-01 3.8416422287e-01
3.8514173998e-01 3.8514173998e-01 3.8514173998e-01
3.8611925709e-01 3.8611925709e-01 3.8611925709e-01
3.8709677419e-01 3.8709677419e-01 3.8709677419e-01
3.8807429130e-01 3.8807429130e-01 3.8807429130e-01
3.8905180841e-01 3.8905180841e-01 3.8905180841e-01
3.9002932551e-01 3.9002932551e-01 3.9002932551e-01
3.9100684262e-01 3.9100684262e-01 3.9100684262e-01
3.9198435973e-01 3.9198435973e-01 3.9198435973e-01
3.9296187683e-01 3.9296187683e-01 3.9296187683e-01
3.9393939394e-01 3.9393939394e-01 3.9393939394e-01
3.9491691105e-01 3.9491691105e-01 3.9491691105e-01
3.9589442815e-01 3.9589442815e-01 3.9589442815e-01
3.9687194526e-01 3.9687194526e-01 3.9687194526e-01
3.9784946237e-01 3.9784946237e-01 3.9784946237e-01
3.9882697947e-01 3.9882697947e-01 3.9882697947e-01
3.9980449658e-01 3.9980449658e-01 3.9980449658e-01
4.0078201369e-01 4.0078201369e-01 4.0078201369e-01
4.0175953079e-01 4.0175953079e-01 4.0175953079e-01
4.0273704790e-01 4.0273704790e-01 4.0273704790e-01
4.0371456500e-01 4.0371456500e-01 4.0371456500e-01
4.0469208211e-01 4.0469208211e-01 4.0469208211e-01
4.0566959922e-01 4.0566959922e-01 4.0566959922e-01
4.0664711632e-01 4.0664711632e-01 4.0664711632e-01
4.0762463343e-01 4.0762463343e-01 4.0762463343e-01
4.0860215054e-01 4.0860215054e-01 4.0860215054e-01
4.0957966764e-01 4.0957966764e-01 4.0957966764e-01
4.1055718475e-01 4.1055718475e-01 4.1055718475e-01
4.1153470186e-01 4.1153470186e-01 4.1153470186e-01
4.1251221896e-01 4.1251221896e-01 4.1251221896e-01
4.1348973607e-01 4.1348973607e-01 4.1348973607e-01
4.1446725318e-01 4.1446725318e-01 4.1446725318e-01
4.1544477028e-01 4.1544477028e-01 4.1544477028e-01
4.1642228739e-01 4.1642228739e-01 4.1642228739e-01
4.1739980450e-01 4.1739980450e-01 4.1739980450e-01
4.1837732160e-01 4.1837732160e-01 4.1837732160e-01
4.1935483871e-01 4.1935483871e-01 4.1935483871e-01
4.2033235582e-01 4.2033235582e-01 4.2033235582e-01
4.2130987292e-01 4.2130987292e-01 4.2130987292e-01
4.2228739003e-01 4.2228739003e-01 4.2228739003e-01
4.2326490714e-01 4.2326490714e-01 4.2326490714e-01
4.2424242424e-01 4.2424242424e-01 4.2424242424e-01
4.2521994135e-01 4.2521994135e-01 4.2521994135e-01
4.2619745846e-01 4.2619745846e-01 4.2619745846e-01
4.2717497556e-01 4.2717497556e-01 4.2717497556e-01
4.2815249267e-01 4.2815249267e-01 4.2815249267e-01
4.2913000978e-01 4.2913000978e-01 4.2913000978e-01
4.3010752688e-01 4.3010752688e-01 4.3010752688e-01
4.3108504399e-01 4.3108504399e-01 4.3108504399e-01
4.3206256109e-01 4.3206256109e-01 4.3206256109e-01
4.3304007820e-01 4.3304007820e-01 4.3304007820e-01
4.3401759531e-01 4.3401759531e-01 4.3401759531e-01
4.3499511241e-01 4.3499511241e-01 4.3499511241e-01
4.3597262952e-01 4.3597262952e-01 4.3597262952e-01
4.3695014663e-01 4.3695014663e-01 4.3695014663e-01
4.3792766373e-01 4.3792766373e-01 4.3792766373e-01
4.3890518084e-01 4.3890518084e-01 4.3890518084e-01
4.3988269795e-01 4.3988269795e-01 4.3988269795e-01
4.4086021505e-01 4.4086021505e-01 4.4086021505e-01
4.4183773216e-01 4.4183773216e-01 4.4183773216e-01
4.4281524927e-01 4.4281524927e-01 4.4281524927e-01
4.4379276637e-01 4.4379276637e-01 4.4379276637e-01
4.4477028348e-01 4.4477028348e-01 4.4477028348e-01
4.4574780059e-01 4.4574780059e-01 4.4574780059e-01
4.4672531769e-01 4.4672531769e-01 4.4672531769e-01
4.4770283480e-01 4.4770283480e-01 4.4770283480e-01
4.4868035191e-01 4.4868035191e-01 4.4868035191e-01
4.4965786901e-01 4.4965786901e-01 4.4965786901e-01
4.5063538612e-01 4.5063538612e-01 4.5063538612e-01
4.5161290323e-01 4.5161290323e-01 4.5161290323e-01
4.5259042033e-01 4.5259042033e-01 4.5259042033e-01
4.5356793744e-01 4.5356793744e-01 4.5356793744e-01
4.5454545455e-01 4.5454545455e-01 4.5454545455e-01
4.5552297165e-01 4.5552297165e-01 4.5552297165e-01
